!!!COM: Beethoven, Ludwig van
!!!CDT: 1770///-1827///
!!!ODT: 1806///
!!!OTL: String Quartet No. 8 in E Minor, Op. 59, No. 2
!!!OPS: Op. 59
!!!ONM: No. 2
!!!OMV: Mvmt. 4
!!!OMD: Finale: Presto
!!!PDT: 1808///
!!!PPP: Vienna
!!!ODE: Dem Grafen Rasoumoffsky gewidmet
!!!ONB: Op. 59 are called the Rasumovsky Quartets
!!!MPD: 1806///
**kern	**dynam	**kern	**dynam	**kern	**dynam	**kern	**dynam
*staff4	*staff4	*staff3	*staff3	*staff2	*staff2	*staff1	*staff1
*Icello	*Icello	*Iviola	*Iviola	*Ivioln	*Ivioln	*Ivioln	*Ivioln
*clefF4	*clefF4	*clefC3	*clefC3	*clefG2	*clefG2	*clefG2	*clefG2
*k[f#]	*k[f#]	*k[f#]	*k[f#]	*k[f#]	*k[f#]	*k[f#]	*k[f#]
*e:	*e:	*e:	*e:	*e:	*e:	*e:	*e:
*M2/2	*M2/2	*M2/2	*M2/2	*M2/2	*M2/2	*M2/2	*M2/2
*MM280	*MM280	*MM280	*MM280	*MM280	*MM280	*MM280	*MM280
=1-	=1-	=1-	=1-	=1-	=1-	=1-	=1-
4CC'/	pv	4E'/	pv	4G'/	pv	2.c/	pv
8r	.	8r	.	8r	.	.	.
8C'/	.	8E'/	.	8G'/	.	.	.
4C'/	.	4E'/	.	4G'/	.	.	.
8r	.	8r	.	8r	.	(8ccc\L	.
8C'/	.	8E'/	.	8G'/	.	8ddd\J	.
=2	=2	=2	=2	=2	=2	=2	=2
4C'/	.	4E'/	.	4G'/	.	4eee'\)	.
8r	.	8r	.	8r	.	8r	.
8C'/	.	8E'/	.	8G'/	.	8ddd'\	.
4C'/	.	4Fn'/	.	4A'/	.	4ccc'\	.
8r	.	8r	.	8r	.	8r	.
8C'/	.	8F'/	.	8B'/	.	8aa'\	.
=3	=3	=3	=3	=3	=3	=3	=3
4C'/	.	4E'/	.	4c'/	.	2.gg\	.
8r	.	8r	.	8r	.	.	.
8C'/	.	8E'/	.	8G'/	.	.	.
4C'/	.	4E'/	.	4G'/	.	.	.
8r	.	8r	.	8r	.	(8ccc\L	.
8C'/	.	8E'/	.	8G'/	.	8ddd\J	.
=4	=4	=4	=4	=4	=4	=4	=4
4C'/	.	4E'/	.	4G'/	.	8eee\L	.
.	.	.	.	.	.	8ddd\)	.
8r	.	8r	.	8r	.	8ccc'\	.
8C'/	.	8E'/	.	8G'/	.	8bb'\J	.
4C'/	.	4Fn'/	.	4A'/	.	(8ddd\L	.
.	.	.	.	.	.	8ccc\)	.
8r	.	8r	.	8r	.	8bb'\	.
8C'/	.	8F'/	.	8B'/	.	8aa'\J	.
=5	=5	=5	=5	=5	=5	=5	=5
4C'/	.	4E'/	.	4c'/	.	[2gg\	.
8r	.	8r	.	8r	.	.	.
8C'/	.	8E'/	.	8G'/	.	.	.
4C'/	.	4E'/	.	4G'/	.	4.gg\]	.
8r	.	8r	.	8r	.	.	.
8C'/	.	8E'/	.	8G'/	.	8ffn'\	.
=6	=6	=6	=6	=6	=6	=6	=6
4C'/	.	4E'/	.	4G'/	.	4ee'\	.
8r	.	8r	.	8r	.	8r	.
8C'/	.	8E'/	.	8G'/	.	8dd'\	.
4C'/	.	4E'/	.	4G'/	.	4cc'\	.
8r	.	8r	.	8r	.	8r	.
8C'/	.	8E'/	.	8G'/	.	8b'\	.
=7	=7	=7	=7	=7	=7	=7	=7
.	.	.	.	.	.	(bq/	.
4C'/	.	4E'/	.	4G'/	.	4a/	.
8r	.	8r	.	8r	.	8g/L	.
8C'/	.	8E'/	.	8G'/	.	8a/J	.
4BB'/	.	4E'/	.	4G'/	.	[2b\)	.
8r	.	8r	.	8r	.	.	.
8BB'/	.	8E'/	.	8G'/	.	.	.
=8	=8	=8	=8	=8	=8	=8	=8
4BB'/	.	4F#'/	.	4A'/	.	(4b\]	.
8r	.	8r	.	8r	.	8cc#\L	<
8BB'/	<	8F#'/	<	8A'/	<	8dd#\J	.
4BB'/	.	4F#'/	.	4A'/	.	4ee\	.
8r	.	8r	.	8r	.	8ff#\L	.
8BB'/	.	8F#'/	.	8A'/	.	8dd#\J)	.
=9	=9	=9	=9	=9	=9	=9	=9
4E\	.	4E/	.	4G/	.	8ee\	.
.	.	.	.	.	.	8r	.
8r	.	8r	.	8r	.	(8ee\L	.
8E\	.	8G/	.	8g/	.	8ffn\J	.
4D\	.	4G/	.	4fn/	.	8gg\)	.
.	.	.	.	.	.	8r	.
8r	.	8r	.	8r	.	(8aa\L	.
8D\	Xf	8G/	Xf	8f/	Xf	8bb\J	Xf
=10	=10	=10	=10	=10	=10	=10	=10
4C/	pv	4G/	pv	4e/	pv	2.cccn\)	pv
8r	.	8r	.	8r	.	.	.
8c\	.	8e\	.	8g/	.	.	.
4c\	.	4e\	.	4g/	.	.	.
8r	.	8r	.	8r	.	(8ccc\L	.
8c\	.	8e\	.	8g/	.	8dddn\J	.
=11	=11	=11	=11	=11	=11	=11	=11
4c\	.	4e\	.	4g/	.	4eee'\)	.
8r	.	8r	.	8r	.	8r	.
8c\	.	8e\	.	8g/	.	8ddd'\	.
4c\	.	4fn\	.	4a/	.	4ccc'\	.
8r	.	8r	.	8r	.	8r	.
8c\	.	8f\	.	8b\	.	8aa'\	.
=12	=12	=12	=12	=12	=12	=12	=12
4c\	.	4e\	.	4cc\	.	2.gg\	.
8r	.	8r	.	8r	.	.	.
8c\	.	8e\	.	8g/	.	.	.
4c\	.	4e\	.	4g/	.	.	.
8r	.	8r	.	8r	.	(8ccc\L	.
8c\	.	8e\	.	8g/	.	8ddd\J	.
=13	=13	=13	=13	=13	=13	=13	=13
4c'\	.	4e'\	.	4g'/	.	8eee\L)	.
.	.	.	.	.	.	&(8ddd\&)	.
8r	.	8r	.	8r	.	8ccc'\	.
8c'\	.	8e'\	.	8g'/	.	8bb'\J	.
4c'\	.	4fn'\	.	4a'/	.	(8ddd\L	.
.	.	.	.	.	.	8ccc\)	.
8r	.	8r	.	8r	.	8bb'\	.
8c'\	.	8f'\	.	8b'\	.	8aa'\J	.
=14	=14	=14	=14	=14	=14	=14	=14
4c'\	.	4e'\	.	4cc'\	.	[2gg\	.
8r	.	8r	.	8r	.	.	.
8c'\	.	8e'\	.	8g'/	.	.	.
4c'\	.	4e'\	.	4g'/	.	4.gg\]	.
8r	.	8r	.	8r	.	.	.
8c'\	.	8e'\	.	8g'/	.	8ffn'\	.
=15	=15	=15	=15	=15	=15	=15	=15
4c'\	.	4e'\	.	4g'/	.	4ee'\	.
8r	.	8r	.	8r	.	8r	.
8c'\	.	8e'\	.	8g'/	.	8dd'\	.
4c'\	.	4e'\	.	4g'/	.	4cc'\	.
8r	.	8r	.	8r	.	8r	.
8c'\	.	8e'\	.	8g'/	.	8b'\	.
=16	=16	=16	=16	=16	=16	=16	=16
.	.	.	.	.	.	(bq/	.
4c'\	.	4e'\	.	4g'/	.	4a/	.
8r	.	8r	.	8r	.	8g/L	.
8c'\	.	8e'\	.	8g'/	.	8a/J	.
4B'\	.	4e'\	.	4g'/	.	[2b/)	.
8r	.	8r	.	8r	.	.	.
8B'\	.	8e'\	.	8g'/	.	.	.
=17	=17	=17	=17	=17	=17	=17	=17
4B'\	.	4f#'\	.	4a'/	.	(4b\]	.
8r	.	8r	.	8r	.	8cc#\L	<
8B'\	<	8f#'\	<	8a'/	<	8dd#\J	.
4B'\	.	4f#'\	.	4a'/	.	4ee\	.
8r	.	8r	.	8r	.	8ff#\L	.
8B'\	.	8f#'\	.	8a'/	.	8dd#\J)	.
=18	=18	=18	=18	=18	=18	=18	=18
4e'\	.	4B'/	.	4g'/	.	2ee'\	.
8r	.	8r	.	8r	.	.	.
8E'\	.	8B'/	.	8e'/	.	.	.
4E'\	.	4B'/	.	4e'/	.	2gg'\	.
8r	.	8r	.	8r	.	.	.
8E'\	Xf	8B'/	Xf	8e'/	Xf	.	Xf
=19	=19	=19	=19	=19	=19	=19	=19
4F#'\	pv	4A#'/	pv	4c#'/	pv	2.ff#\	pv
8r	.	8r	.	8r	.	.	.
8F#'\	.	8A#'/	.	8c#'/	.	.	.
4F#'\	.	4A#'/	.	4c#'/	.	.	.
8r	.	8r	.	8r	.	4ccc#\	.
8F#'\	.	8A#'/	.	8c#'/	.	.	.
=20	=20	=20	=20	=20	=20	=20	=20
4F#'\	.	4A#'/	.	4c#'/	.	(8ccc#\L	.
.	.	.	.	.	.	8aa#\J)	.
8r	.	8r	.	8r	.	4ff#'\	.
8F#'\	.	8A#'/	.	8c#'/	.	.	.
4F#'\	.	4A#'/	.	4c#'/	.	4ff#'\	.
8r	.	8r	.	8r	.	4ff#'\	.
8F#'\	.	8A#'/	.	8c#'/	.	.	.
=21	=21	=21	=21	=21	=21	=21	=21
2F#'\	<	2A#'/	<	2c#'/	<	2ff#'\	<
2D'\	.	2An'/	.	2f#'/	.	2cccn'\	.
=22	=22	=22	=22	=22	=22	=22	=22
2G'\	.	2d'\	.	2fn'/	.	2bb'\	.
2GG'/	Xf	2G'/ 2d'/	Xf	2ffn'\	Xf	2bb'\	Xf
=23	=23	=23	=23	=23	=23	=23	=23
4CC'/ 4C'/	pv	4G'/	pv	4ee'\	pv	2.ccc\	pv
8r	.	8r	.	8r	.	.	.
8CC'/ 8C'/	.	8G'/	.	8e'/	.	.	.
4CC'/ 4C'/	.	4G'/	.	4e'/	.	.	.
8r	.	8r	.	8r	.	(8ccc\L	.
8CC'/ 8C'/	.	8G'/	.	8e'/	.	8ddd\J	.
=24	=24	=24	=24	=24	=24	=24	=24
4CC'/ 4C'/	.	4G'/	.	4e'/	.	4eee'\)	.
8r	.	8r	.	8r	.	8r	.
8CC'/ 8C'/	.	8G'/	.	8e'/	.	8ddd'\	.
4CC'/ 4C'/	.	4A'/	.	4fn'/	.	4ccc'\	.
8r	.	8r	.	8r	.	8r	.
8CC'/ 8C'/	.	8B'/	.	8fn'/	.	8aa'\	.
=25	=25	=25	=25	=25	=25	=25	=25
4CC'/ 4C'/	.	4c'\	.	4e'/	.	2.gg\	.
8r	.	8r	.	8r	.	.	.
8CC'/ 8C'/	.	8G'/	.	8e'/	.	.	.
4CC'/ 4C'/	.	4G'/	.	4e'/	.	.	.
8r	.	8r	.	8r	.	(8ccc\L	.
8CC'/ 8C'/	.	8G'/	.	8e'/	.	8ddd\J	.
=26	=26	=26	=26	=26	=26	=26	=26
4CC'/ 4C'/	.	4G'/	.	4e'/	.	8eee\L	.
.	.	.	.	.	.	8ddd\)	.
8r	.	8r	.	8r	.	8ccc'\	.
8CC'/ 8C'/	.	8G'/	.	8e'/	.	8bb'\J	.
4CC'/ 4C'/	.	4A'/	.	4fn'/	.	(8ddd\L	.
.	.	.	.	.	.	8ccc\)	.
8r	.	8r	.	8r	.	8bb'\	.
8CC'/ 8C'/	.	8B'/	.	8fn'/	.	8aa'\J	.
=27	=27	=27	=27	=27	=27	=27	=27
4CC'/ 4C'/	.	4c'\	.	4e'/	.	[2gg\	.
8r	.	8r	.	8r	.	.	.
8CC'/ 8C'/	.	8E'/	.	8g'/	.	.	.
4CC'/ 4C'/	.	4E'/	.	4g'/	.	4.gg\]	.
8r	.	8r	.	8r	.	.	.
8CC'/ 8C'/	.	8D'/	.	8fn'/	.	8ffn\	.
=28	=28	=28	=28	=28	=28	=28	=28
4CC'/ 4C'/	.	4C'/	.	4e'/	.	4ee'\	.
8r	.	8r	.	8r	.	8r	.
8CC'/ 8C'/	.	8D'/	.	8d'/	.	8dd'\	.
4CC'/ 4C'/	.	4E'/	.	4c'/	.	4cc'\	.
8r	.	8r	.	8r	.	8r	.
8CC'/ 8C'/	.	8E'/	.	8B'/	.	8b'\	.
=29	=29	=29	=29	=29	=29	=29	=29
.	.	.	.	(Bq/	.	(bq/	.
4CC'/ 4C'/	.	4E'/	.	4A/	.	4a/	.
8r	.	8r	.	8G/L	.	8g/L	.
8CC'/ 8C'/	.	8E'/	.	8A/J	.	8a/J	.
4BB'/	.	4E'/ 4G'/	.	[2B/)	.	[2b\)	.
8r	.	8r	.	.	.	.	.
8BB'/	.	8E'/ 8G'/	.	.	.	.	.
=30	=30	=30	=30	=30	=30	=30	=30
4BB'/	.	4F#'/ 4A'/	.	(4B/]	.	(4b\]	.
8r	.	8r	.	8c#/L	.	8cc#\L	<
8BB'/	<	8F#'/ 8A'/	<	8d#/J	<	8dd#\J	.
4BB'/	.	4F#'/ 4A'/	.	4e/	.	4ee\	.
8r	.	8r	.	8f#/L	.	8ff#\L	.
8BB'/	.	8F#'/ 8A'/	.	8d#/J)	.	8dd#\J)	.
=31	=31	=31	=31	=31	=31	=31	=31
4E'\	.	4E'/ 4G'/	.	4e'/	.	2ee'\	.
8r	.	8r	.	8r	.	.	.
8E'\	.	8G'/	.	8B'/	.	.	.
4E'\	.	4B'/	.	4e'/	.	2gg'\	.
8r	.	8r	.	8r	.	.	.
8E'\	Xf	8B'/	Xf	8e'/	Xf	.	Xf
=32	=32	=32	=32	=32	=32	=32	=32
4F#'\	pv	4A#'/	pv	4c#'/	pv	2.ff#\	pv
8r	.	8r	.	8r	.	.	.
8F#'\	.	8A#'/	.	8c#'/	.	.	.
4F#'\	.	4A#'/	.	4c#'/	.	.	.
8r	.	8r	.	8r	.	4ccc#'\	.
8F#'\	.	8A#'/	.	8c#'/	.	.	.
=33	=33	=33	=33	=33	=33	=33	=33
4F#'\	.	4A#'/	.	4c#'/	.	(8ccc#\L	.
.	.	.	.	.	.	8aa#\J)	.
8r	.	8r	.	8r	.	4ff#'\	.
8F#'\	.	8A#'/	.	8c#'/	.	.	.
4F#'\	.	4A#'/	.	4c#'/	.	4ff#'\	.
8r	.	8r	.	8r	.	4ff#'\	.
8F#'\	.	8A#'/	.	8c#'/	.	.	.
=34	=34	=34	=34	=34	=34	=34	=34
2F#'\	<	2A#'/	<	2c#'/	<	2ff#'\	<
2D'\	.	2An'/	.	2f#'/	.	2cccn'\	.
=35	=35	=35	=35	=35	=35	=35	=35
2G'\	.	2d'\	.	2fn'/	.	2bb'\	.
2GG'/	Xf	2G'/ 2d'/	Xf	2ffn'\	Xf	2bb'\	Xf
=36	=36	=36	=36	=36	=36	=36	=36
4CC'/ 4C'/	pv	4G'/	pv	4ee'\	pv	2.ccc\	pv
8r	.	8r	.	8r	.	.	.
8CC'/ 8C'/	.	8E'/ 8G'/	.	8g'/	.	.	.
4CC'/ 4C'/	.	4E'/ 4G'/	.	4g'/	.	.	.
8r	.	8r	.	8r	.	(8ccc\L	.
8CC'/ 8C'/	.	8E'/ 8G'/	.	8g'/	.	8ddd\J	.
=37	=37	=37	=37	=37	=37	=37	=37
4CC'/ 4C'/	.	4E'/ 4G'/	.	4g'/	.	4eee'\)	.
8r	.	8r	.	8r	.	8r	.
8CC'/ 8C'/	.	8E'/ 8G'/	.	8g'/	.	8ddd'\	.
4CC'/ 4C'/	.	4Fn'/ 4A'/	.	4a'/	.	4ccc'\	.
8r	.	8r	.	8r	.	8r	.
8CC'/ 8C'/	.	8A'/	.	8fn'/	.	8aa'\	.
=38	=38	=38	=38	=38	=38	=38	=38
4CC'/ 4C'/	.	4c'\	.	4e'/	.	2.gg\	.
8r	.	8r	.	8r	.	.	.
8CC'/ 8C'/	.	8E'/ 8G'/	.	8g'/	.	.	.
4CC'/ 4C'/	.	4E'/ 4G'/	.	4g'/	.	.	.
8r	.	8r	.	8r	.	(8ccc\L	.
8CC'/ 8C'/	.	8E'/ 8G'/	.	8g'/	.	8ddd\J	.
=39	=39	=39	=39	=39	=39	=39	=39
4CC'/ 4C'/	.	4E'/ 4G'/	.	4g/	.	8eee\L	.
.	.	.	.	.	.	8ddd\)	.
8r	.	8r	.	8r	.	8ccc'\	.
8CC'/ 8C'/	.	8E'/ 8G'/	.	8g/	.	8bb'\J	.
4CC'/ 4C'/	.	4Fn'/ 4A'/	.	4a/	.	(8ddd\L	.
.	.	.	.	.	.	8ccc\)	.
8r	.	8r	.	(8cc\L	.	8bb'\	.
8CC'/ 8C'/	.	8F'/	.	8dd\J	.	8aa'\J	.
=40	=40	=40	=40	=40	=40	=40	=40
4CC'/ 4C'/	.	4c'\	.	8ee\L	.	[2gg\	.
.	.	.	.	8dd\)	.	.	.
8r	.	8r	.	8cc'\	.	.	.
8CC'/ 8C'/	.	8E'/	.	8b'\J	.	.	.
4CC'/ 4C'/	.	4Fn'/	.	(8dd\L	.	4.gg\]	.
.	.	.	.	8cc\)	.	.	.
8r	.	8r	.	8b'\	.	.	.
8CC'/ 8C'/	.	8A'/	.	8a'\J	.	8ffn'\	.
=41	=41	=41	=41	=41	=41	=41	=41
4CC'/ 4C'/	.	4c'\	.	4g'/	.	4ee'\	.
8r	.	8r	.	8r	.	8r	.
8CC'/ 8C'/	.	8fn'\	.	8a'/	.	8dd'\	.
4CC'/ 4C'/	.	4e'\	.	4g'/	.	4cc'\	.
8r	.	8r	.	8r	.	8r	.
8CC'/ 8C'/	.	8d'\	.	8fn'/	.	8b'\	.
=42	=42	=42	=42	=42	=42	=42	=42
.	.	.	.	.	.	(bq/	.
4CC'/ 4C'/	.	4c'\	.	4e'/	.	4a/	.
8r	<	8r	<	8r	<	8g/L	<
8c'\	.	8c'\	.	8e'/	.	8a/J	.
4B'\	.	4e'\	.	4g'/	.	[2b/)	.
8r	.	8r	.	8r	.	.	.
8B'\	.	8e'\	.	8g'/	.	.	.
=43	=43	=43	=43	=43	=43	=43	=43
4B'\	.	4e'\	.	4g'/	.	4b/]	.
8r	.	8r	.	8r	.	(8a\L	.
8B'\	.	8e'\	.	8g'/	.	8b\J	.
4A'\	.	4e'\	.	4a'/	.	[2cc\)	.
8r	.	8r	.	8r	.	.	.
8A'\	.	8e'\	.	8a'/	.	.	.
=44	=44	=44	=44	=44	=44	=44	=44
4A'\	.	4d#'\	.	4f#'/	.	4cc\]	.
8r	.	8r	.	8r	.	(8b\L	.
8A'\	.	8B'/	.	8f#'/	.	8dd#\J	.
4G'\	.	4B'/	.	4e'/	.	8ee'\)	.
.	.	.	.	.	.	8r	.
8r	.	8r	.	8r	.	(8b\L	.
8G'\	.	8B'/	.	8e'/	.	8ee\J	.
=45	=45	=45	=45	=45	=45	=45	=45
4F#'\	.	4A'/	.	4d#'/	.	8ff#'\)	.
.	.	.	.	.	.	8r	.
8r	.	8r	.	8r	.	(8b\L	.
8F#'\	.	8A'/	.	8d#'/	.	8ff#\J	.
4E'\	.	4B'/	.	4e'/	.	8gg'\)	.
.	.	.	.	.	.	8r	.
8r	.	8r	.	8r	.	(8ee\L	.
8E'\	.	8B'/	.	8e'/	.	8gg\J	.
=46	=46	=46	=46	=46	=46	=46	=46
4C'/	.	4A'/	.	4e'/	.	8aa'\)	.
.	.	.	.	.	.	8r	.
8r	.	8r	.	8r	.	(8ee\L	.
8C'/	.	8A'/	.	8e'/	.	8aa\J	.
4BB'/	.	4G#'/	.	4e'/	.	8bb'\)	.
.	.	.	.	.	.	8r	.
8r	.	8r	.	8r	.	(8ee\L	.
8BB'/	.	8E'/	.	8g#'/	.	8bb\J	.
=47	=47	=47	=47	=47	=47	=47	=47
4AA'/	.	4E'/	.	4a'/	.	8ccc'\)	.
.	.	.	.	.	.	8r	.
8r	.	8r	.	8r	.	(8aa\L	.
8AA'/	.	8E'/	.	8a'/	.	8ff#\J	.
4BB'/	.	4F#'/	.	4d#'/	.	8dd#'\)	.
.	.	.	.	.	.	8r	.
8r	.	8r	.	8r	.	(8b\L	.
8BB'/	.	8F#'/	.	8b'\	.	8dd#\J	.
=48	=48	=48	=48	=48	=48	=48	=48
4GG/	f	4Gn/	f	4b\	f	8ee'\)	f
.	.	.	.	.	.	8r	.
4r	.	4B/	.	4Gn/ 4e/	.	(8b\L	.
.	.	.	.	.	.	8dd#\J	.
4G\	.	4r	.	4r	.	8ee'\)	.
.	.	.	.	.	.	8r	.
4r	.	4B/	.	4G/ 4e/	.	(8b\L	.
.	.	.	.	.	.	8ee\J	.
=49	=49	=49	=49	=49	=49	=49	=49
4F#\	.	4r	.	4r	.	8ff#'\)	.
.	.	.	.	.	.	8r	.
4r	.	4d#\	.	4A/ 4f#/	.	(8b\L	.
.	.	.	.	.	.	8ff#\J	.
4E\	.	4r	.	4r	.	8gg'\)	.
.	.	.	.	.	.	8r	.
4r	.	4e\	.	4B/ 4g/	.	(8ee\L	.
.	.	.	.	.	.	8gg\J	.
=50	=50	=50	=50	=50	=50	=50	=50
4C/	.	4r	.	4r	.	8aa'\)	.
.	.	.	.	.	.	8r	.
4r	.	4c\	.	4e/ 4a/	.	(8ee\L	.
.	.	.	.	.	.	8aa\J	.
4BB/	.	4r	.	4r	.	8bb'\)	.
.	.	.	.	.	.	8r	.
4r	.	4g#\	.	4d/ 4b/	.	(8ee\L	.
.	.	.	.	.	.	8bb\J	.
=51	=51	=51	=51	=51	=51	=51	=51
4AA/	.	4r	.	4r	.	8ccc'\)	.
.	.	.	.	.	.	8r	.
4r	.	4a\	.	4cc\	.	(8aa\L	.
.	.	.	.	.	.	8ff#\J	.
4BB/	.	4r	.	4r	.	8dd#'\)	.
.	.	.	.	.	.	8r	.
4r	.	4f#\	.	4a/	.	(8b\L	.
.	.	.	.	.	.	8dd#\J)	.
=52	=52	=52	=52	=52	=52	=52	=52
4EE/	f	4B/	f	4g'/	f	8ee\L	f
.	.	.	.	.	.	8ff#\	.
4r	.	4r	.	8r	.	8ee\	.
.	.	.	.	8f#'/	.	8dd#\J	.
2r	.	2r	.	4e'/	.	8ee\L	.
.	.	.	.	.	.	8gg\	.
.	.	.	.	8r	.	8ff#\	.
.	.	.	.	8B'/	.	8ee\J	.
=53	=53	=53	=53	=53	=53	=53	=53
4BB/	.	4B\ 4f#\	.	4a'/	.	8dd#\L	.
.	.	.	.	.	.	8ee\	.
4r	.	4r	.	8r	.	8dd#\	.
.	.	.	.	8g'/	.	8cc#\J	.
2r	.	2r	.	4f#'/	.	8dd#\L	.
.	.	.	.	.	.	8ff#\	.
.	.	.	.	8r	.	8ee\	.
.	.	.	.	8B'/	.	8dd#\J	.
=54	=54	=54	=54	=54	=54	=54	=54
4E\	.	4B/	.	4g'/	.	8ee\L	.
.	.	.	.	.	.	8ff#\	.
4r	.	4r	.	8r	.	8ee\	.
.	.	.	.	8f#'/	.	8dd#\J	.
2r	.	2r	.	4e'/	.	8ee\L	.
.	.	.	.	.	.	8gg\	.
.	.	.	.	8r	.	8ff#\	.
.	.	.	.	8B'/	.	8ee\J	.
=55	=55	=55	=55	=55	=55	=55	=55
4BB/	.	4F#/ 4B/	.	4a'/	.	8dd#\L	.
.	.	.	.	.	.	8ee\	.
4r	.	4r	.	8r	.	8ff#\	.
.	.	.	.	8g'/	.	8gg\J	.
2r	.	2r	.	4f#'/	.	8aa\L	.
.	.	.	.	.	.	8bb\	.
.	.	.	.	8r	.	8ccc#\	.
.	.	.	.	8B'/	.	8ddd#\J	.
=56	=56	=56	=56	=56	=56	=56	=56
8E\	.	8G/	.	4g'/	.	4eee\	.
8r	.	8r	.	.	.	.	.
(8E\L	.	(8G/L	.	4r	.	4r	.
8F#\J	.	8A/J	.	.	.	.	.
8G'\)	.	8B'/)	.	2r	.	2r	.
8r	.	8r	.	.	.	.	.
(8A\L	.	(8c\L	.	.	.	.	.
8B\J	.	8d\J	.	.	.	.	.
=57	=57	=57	=57	=57	=57	=57	=57
8c'\)	.	8e'\)	.	1r	.	2r	.
8r	.	8r	.	.	.	.	.
(8c\L	.	(8e\L	.	.	.	.	.
8d\J	.	8f#\J	.	.	.	.	.
2e\)	.	2g\)	.	.	.	(2ccn\	.
=58	=58	=58	=58	=58	=58	=58	=58
4d\	.	4f#\	.	4ff#'\	.	8b'\)	.
.	.	.	.	.	.	8r	.
4r	.	4r	.	8r	.	(8b\L	.
.	.	.	.	8ee'\	.	8cc\J	.
2r	.	2r	.	4dd'\	.	8dd'\)	.
.	.	.	.	.	.	8r	.
.	.	.	.	8r	.	(8dd\L	.
.	.	.	.	8b'\	.	8ee\J	.
=59	=59	=59	=59	=59	=59	=59	=59
1r	.	1r	.	4f#'/	.	8ff#\)	.
.	.	.	.	.	.	8r	.
.	.	.	.	8r	.	(8gg\L	.
.	.	.	.	8e'/	.	8aa\J	.
.	.	.	.	4d'/	.	2bb\)	.
.	.	.	.	8r	.	.	.
.	.	.	.	8B'/	.	.	.
=60	=60	=60	=60	=60	=60	=60	=60
8C/	.	8E/	.	1r	.	4aa\	.
8r	.	8r	.	.	.	.	.
(8C/L	.	(8E/L	.	.	.	4r	.
8D/J	.	8F#/J	.	.	.	.	.
8E'/)	.	8G'/)	.	.	.	2r	.
8r	.	8r	.	.	.	.	.
(8F#\L	.	(8A/L	.	.	.	.	.
8G\J	.	8B/J	.	.	.	.	.
=61	=61	=61	=61	=61	=61	=61	=61
8A'\)	.	8c'/)	.	1r	.	2r	.
8r	.	8r	.	.	.	.	.
(8A\L	.	(8c\L	.	.	.	.	.
8B\J	.	8d\J	.	.	.	.	.
2c\)	.	2e\)	.	.	.	(2a/	.
=62	=62	=62	=62	=62	=62	=62	=62
4B\	.	4d\	.	4dd\	.	8g'/)	.
.	.	.	.	.	.	8r	.
4r	.	4r	.	8r	.	(8g/L	.
.	.	.	.	8cc\	.	8a/J	.
2r	.	2r	.	4b\	.	8b'/)	.
.	.	.	.	.	.	8r	.
.	.	.	.	8r	.	(8b\L	.
.	.	.	.	8g/	.	8cc\J	.
=63	=63	=63	=63	=63	=63	=63	=63
2r	.	2r	.	4d/	.	8dd'\)	.
.	.	.	.	.	.	8r	.
.	.	.	.	8r	.	(8ee\L	.
.	.	.	.	8c/	.	8ff#\J	.
4r	.	4r	.	4B/	.	2gg\)	.
4B\	.	4d\	.	8r	.	.	.
.	.	.	.	8G/	.	.	.
=64	=64	=64	=64	=64	=64	=64	=64
(4A#\	.	4c#\	.	1r	.	(2.ff#\	v
8A#\L	.	(8c#\L	.	.	.	.	.
8B\J	.	8d\J	.	.	.	.	.
[2c#\	.	[2e\	.	.	.	.	.
.	.	.	.	.	.	4gg\	.
=65	=65	=65	=65	=65	=65	=65	=65
4c#'\])	.	4e'\])	.	1r	.	2.ff#\	v
(8B\L	.	(8d\L	.	.	.	.	.
8A#\J	.	8c#\J	.	.	.	.	.
4B\	.	4d\	.	.	.	.	.
4G\	.	4B/	.	.	.	4ee#\)	.
=66	=66	=66	=66	=66	=66	=66	=66
4F#\)	.	4A#/)	.	4r	.	4ff#\	.
4f#\	.	8a#\L	.	(8cc#\L	.	(2fff#\	v
.	.	8b\J	.	8dd\J	.	.	.
4f#\	.	[2cc#\	.	[2ee\	.	.	.
4f#\	.	.	.	.	.	4ggg\	.
=67	=67	=67	=67	=67	=67	=67	=67
4f#\	.	4cc#'\]	.	4ee'\])	.	2.fff#\	.
4f#\	.	(8b\L	.	(8dd\L	.	.	.
.	.	8a#\J	.	8cc#\J	.	.	.
4f#\	.	4b\	.	4dd\	.	.	.
4f#\	.	4g#\)	.	4b\)	.	4eee#\)	.
=68	=68	=68	=68	=68	=68	=68	=68
4f#\	.	4a#\	.	4cc#\	.	4fff#\	.
4r	.	4r	.	4r	.	(2ff#\	v>
2r	.	2r	.	2r	.	.	.
.	.	.	.	.	.	4gg\	.
=69	=69	=69	=69	=69	=69	=69	=69
2r	.	2r	.	2r	.	4een\	.
.	.	.	.	.	.	4dd\	.
4r	.	4r	.	4r	.	4cc#\	.
(4FF#/	p	(4A#/	p	(4c#/	p	4ff#\)	.
=70	=70	=70	=70	=70	=70	=70	=70
4BB/)	.	4B/)	.	4d/)	.	(4b\	p
4r	.	4r	.	4r	.	4dd\	.
(4BB/	.	(4B/	.	(4d/	.	4ff#\	.
4FF#/)	.	4d\)	.	4f#/)	.	4bb\	.
=71	=71	=71	=71	=71	=71	=71	=71
2r	.	2r	.	2r	.	4aa#\	.
.	.	.	.	.	.	4ccc#\)	.
(4F#\	.	(4F#/	.	(4c#/	.	4r	.
4AA#/)	.	4e\)	.	4f#/)	.	(4ccc#\	.
=72	=72	=72	=72	=72	=72	=72	=72
2r	.	2r	.	2r	.	4bb\	.
.	.	.	.	.	.	4ddd\)	.
(4F#\	.	(4B/	.	(4d/	.	4r	.
4BB/)	.	4d\)	.	4f#/)	.	(4ddd\	.
=73	=73	=73	=73	=73	=73	=73	=73
2r	.	2r	.	2r	.	4cccn\	.
.	.	.	.	.	.	4eee\)	.
(4G\	.	(4c\	.	(4e/	.	4r	.
4E\)	.	4e\)	.	4g/)	.	(4eee\	.
=74	=74	=74	=74	=74	=74	=74	=74
2r	.	2r	.	2r	.	4gg\	.
.	.	.	.	.	.	4ccc\	.
(4EE/	.	(4G/	.	(4c/	.	4eee\	.
4CC/)	.	4c/)	.	4e/)	.	4ggg\)	.
=75	=75	=75	=75	=75	=75	=75	=75
2r	.	2r	.	2r	.	(4fff#\	.
.	.	.	.	.	.	4ddd\)	.
(4FF#/	.	(4B/	.	(4d/	.	4r	.
4BB/)	.	4F#/)	.	4f#/)	.	(4ddd\	.
=76	=76	=76	=76	=76	=76	=76	=76
2r	.	2r	.	2r	.	4ccc#\	.
.	.	.	.	.	.	4fff#\)	.
(4FF#/	.	(4A#/	.	(4c#/	.	4r	.
4AA#/)	.	4F#/)	.	4f#/)	.	(4fff#\	.
=77	=77	=77	=77	=77	=77	=77	=77
[1BB	<	4r	.	1r	.	4ddd\	.
.	.	(4D/	<	.	.	4bb\)	.
.	.	4F#/	.	.	.	2r	.
.	.	4B/)	.	.	.	.	.
=78	=78	=78	=78	=78	=78	=78	=78
(4BB/]	.	(4D/	.	2r	.	2r	.
4D\	.	4F#/	.	.	.	.	.
4F#\	.	4B/	.	(4dd\	<	(4ff#\	<
4B\	.	4d\	.	4b\)	.	4dd\)	.
=79	=79	=79	=79	=79	=79	=79	=79
4A#\	p	4c#\	.	2r	.	2r	.
4c#\)	.	4e\)	p	.	.	.	.
4r	.	4r	.	(4cc#\	p	(4ff#\	p
(4c#\	.	(4e\	.	4a#/)	.	4cc#\)	.
=80	=80	=80	=80	=80	=80	=80	=80
4B\	.	4d\	.	2r	.	2r	.
4d\)	.	4f#\)	.	.	.	.	.
4r	.	4r	.	(4dd\	.	(4ff#\	.
(4d\	.	(4f#\	.	4b\)	.	4dd\)	.
=81	=81	=81	=81	=81	=81	=81	=81
4cn\	.	4e\	.	2r	.	2r	.
4e\)	.	4g\)	.	.	.	.	.
4r	.	4r	.	(4ccn\	.	(4ee\	.
(4e\	.	(4g\	.	4g/)	.	4ccn\)	.
=82	=82	=82	=82	=82	=82	=82	=82
4E\	.	4G/	.	2r	.	2r	.
4G\	.	4c\	.	.	.	.	.
4c\	.	4e\	.	(4ee\	.	(4gg\	.
4e\	.	4g\	.	4cc\)	.	4ee\)	.
=83	=83	=83	=83	=83	=83	=83	=83
4d\	.	4f#\	.	2r	.	2r	.
4B\)	.	4d\)	.	.	.	.	.
4r	.	4r	.	(4b\	.	(4dd\	.
(4B\	.	(4d\	.	4dd\)	.	4ff#\)	.
=84	=84	=84	=84	=84	=84	=84	=84
4c#\	.	4e\	.	2r	.	2r	.
4F#\)	.	4c#\)	.	.	.	.	.
4r	.	4r	.	(4a#/	.	(4cc#\	.
4F#\	.	4c#\	.	4cc#\)	.	4aa#\)	.
=85	=85	=85	=85	=85	=85	=85	=85
1B	pp	4d\	pp	4b\	pp	(2.bb\	pp
.	.	(8d\L	.	(8b\L	.	.	.
.	.	8e\J	.	8cc#\J	.	.	.
.	.	2f#\)	.	2dd\)	.	.	.
.	.	.	.	.	.	8ccc#\L	.
.	.	.	.	.	.	8bb\J	.
=86	=86	=86	=86	=86	=86	=86	=86
1B	.	(4g\	.	(4ee\	.	2.aa#\	.
.	.	8e\L	.	8cc#\L	.	.	.
.	.	8f#\J	.	8dd\J	.	.	.
.	.	4g\	.	4ee\	.	.	.
.	.	8f#\L	.	8dd\L	.	8bb\L	.
.	.	8e\J)	.	8cc#\J)	.	8aa#\J)	.
=87	=87	=87	=87	=87	=87	=87	=87
1B	.	4d\	.	4b\	.	(2.bb\	.
.	.	(8d\L	.	(8b\L	.	.	.
.	.	8e\J	.	8cc#\J	.	.	.
.	.	8f#\L	.	8dd\L	.	.	.
.	.	8d\	.	8b\	.	.	.
.	.	8e\	.	8cc#\	.	8ccc#\L	.
.	.	8f#\J)	.	8dd\J)	.	8bb\J	.
=88	=88	=88	=88	=88	=88	=88	=88
1B	.	(2.g\	.	(2.ee\	.	8aa#\L	.
.	.	.	.	.	.	8bb\	.
.	.	.	.	.	.	8ccc#\	.
.	.	.	.	.	.	8bb\J	.
.	.	.	.	.	.	8aa#\L	.
.	.	.	.	.	.	8ccc#\	.
.	.	8f#\L	.	8dd\L	.	8bb\	.
.	.	8e\J)	.	8cc#\J)	.	8aa#\J)	.
=89	=89	=89	=89	=89	=89	=89	=89
4B\	.	4d\	.	4b\	.	4bb\	pp
4r	.	4r	.	2r	.	(8b\L	.
.	.	.	.	.	.	8cc#\J	.
2r	.	2r	.	.	.	8dd'\)	.
.	.	.	.	.	.	8r	.
.	.	.	.	(8b\L	pp	4r	.
.	.	.	.	8cc#\J	.	.	.
=90	=90	=90	=90	=90	=90	=90	=90
1r	.	2r	.	8dd'\)	.	4r	.
.	.	.	.	8r	.	.	.
.	.	.	.	4r	.	(8b\L	.
.	.	.	.	.	.	8cc#\J	.
.	.	4r	.	2r	.	8dd'\)	.
.	.	.	.	.	.	8r	.
.	.	(8B/L	pp	.	.	4r	.
.	.	8c#\J	.	.	.	.	.
=91	=91	=91	=91	=91	=91	=91	=91
2r	.	8d'/)	.	4r	.	1r	.
.	.	8r	.	.	.	.	.
.	.	4r	.	(8B/L	.	.	.
.	.	.	.	8c#/J	.	.	.
4r	.	2r	.	8d'/)	.	.	.
.	.	.	.	8r	.	.	.
(8BB/L	pp	.	.	4r	.	.	.
8C#/J	.	.	.	.	.	.	.
=92	=92	=92	=92	=92	=92	=92	=92
8D'/)	.	4r	.	2r	.	1r	.
8r	.	.	.	.	.	.	.
4r	.	(8B/L	.	.	.	.	.
.	.	8c#\J	.	.	.	.	.
2r	.	8d'/)	.	4r	.	.	.
.	.	8r	.	.	.	.	.
.	.	4r	.	(8B/L	.	.	.
.	.	.	.	8c#/J	.	.	.
=93	=93	=93	=93	=93	=93	=93	=93
1r	.	1r	.	8d'/)	.	4r	.
.	.	.	.	8r	.	.	.
.	.	.	.	4r	.	(8b\L	.
.	.	.	.	.	.	8cc#\J	.
.	.	.	.	2r	.	8dd'\)	.
.	.	.	.	.	.	8r	.
.	.	.	.	.	.	(8b\L	.
.	.	.	.	.	.	8ccn\J	.
=94	=94	=94	=94	=94	=94	=94	=94
1r	.	2r	.	4r	.	8dd'\)	.
.	.	.	.	.	.	8r	.
.	.	.	.	(8B/L	.	4r	.
.	.	.	.	8cn/J	.	.	.
.	.	4r	.	8d'/)	.	2r	.
.	.	.	.	8r	.	.	.
.	.	(8B/L	.	4r	.	.	.
.	.	8cn\J	.	.	.	.	.
=95	=95	=95	=95	=95	=95	=95	=95
4r	.	8d'/)	.	2r	.	1r	.
.	.	8r	.	.	.	.	.
(8BB/L	.	4r	.	.	.	.	.
8C/J	.	.	.	.	.	.	.
8D'/)	.	2r	.	4r	.	.	.
8r	.	.	.	.	.	.	.
4r	.	.	.	(8B/L	.	.	.
.	.	.	.	8c/J	.	.	.
=96	=96	=96	=96	=96	=96	=96	=96
1r	.	4r	.	8d'/)	.	2r	.
.	.	.	.	8r	.	.	.
.	.	(8B/L	.	4r	.	.	.
.	.	8c\J	.	.	.	.	.
.	.	8d'/)	.	2r	.	4r	.
.	.	8r	.	.	.	.	.
.	.	4r	.	.	.	(8b\L	.
.	.	.	.	.	.	8cc\J	.
=97	=97	=97	=97	=97	=97	=97	=97
1r	.	1r	.	2r	.	8dd'\)	.
.	.	.	.	.	.	8r	.
.	.	.	.	.	.	(8dd\L	.
.	.	.	.	.	.	8ee\J	.
.	.	.	.	4r	.	8ffn'\)	.
.	.	.	.	.	.	8r	.
.	.	.	.	(8d/L	.	4r	.
.	.	.	.	8e/J	.	.	.
=98	=98	=98	=98	=98	=98	=98	=98
2r	.	1r	.	8fn'/)	.	4r	.
.	.	.	.	8r	.	.	.
.	.	.	.	4r	.	(8d/L	.
.	.	.	.	.	.	8e/J	.
4r	.	.	.	2r	.	8fn'/)	.
.	.	.	.	.	.	8r	.
(8D\L	.	.	.	.	.	4r	.
8E\J	.	.	.	.	.	.	.
=99	=99	=99	=99	=99	=99	=99	=99
8Fn'\)	.	4r	.	1r	.	1r	.
8r	.	.	.	.	.	.	.
2r	.	(8D/L	.	.	.	.	.
.	.	8E/J	.	.	.	.	.
.	.	8Fn'/)	.	.	.	.	.
.	.	8r	.	.	.	.	.
(8DD/L	.	4r	.	.	.	.	.
8EE/J	.	.	.	.	.	.	.
=100	=100	=100	=100	=100	=100	=100	=100
8FFn'/)	.	4r	.	1r	.	1r	.
8r	.	.	.	.	.	.	.
2r	.	(8D/L	.	.	.	.	.
.	.	8E/J	.	.	.	.	.
.	.	8Fn'/)	.	.	.	.	.
.	.	8r	.	.	.	.	.
(8DD/L	.	4r	.	.	.	.	.
8EE/J	.	.	.	.	.	.	.
=101	=101	=101	=101	=101	=101	=101	=101
8FFn'/)	.	4r	.	4r	.	1r	.
8r	.	.	.	.	.	.	.
2r	.	(8D/L	.	(8d/L	.	.	.
.	.	8E/J	.	8e/J	.	.	.
.	.	8Fn'/)	.	8fn'/)	.	.	.
.	.	8r	.	8r	.	.	.
(8DD/L	.	4r	.	4r	.	.	.
8EE/J	.	.	.	.	.	.	.
=102	=102	=102	=102	=102	=102	=102	=102
8FFn'/)	.	4r	.	1r	.	4r	.
8r	.	.	.	.	.	.	.
2r	.	(8D/L	.	.	.	(8dd\L	.
.	.	8E/J	.	.	.	8ee\J	.
.	.	8Fn'/)	.	.	.	8ffn'\)	.
.	.	8r	.	.	.	8r	.
(8DD/L	.	4r	.	.	.	4r	.
8EE/J	.	.	.	.	.	.	.
=103	=103	=103	=103	=103	=103	=103	=103
4FFn'/)	.	4Fn/	.	4r	.	2r	.
(8DD/L	.	(8D/L	.	(8d/L	.	.	.
8EE/J	.	8E/J	.	8e/J	.	.	.
4FF'/)	.	4F'/)	.	4fn'/)	.	4r	.
(8DD/L	<	(8D/L	<	(8d/L	<	(8dd\L	<
8EE/J	.	8E/J	.	8e/J	.	8ee\J	.
=104	=104	=104	=104	=104	=104	=104	=104
4FFn'/)	.	4Fn'/)	.	4fn'/)	.	4ffn'\)	.
(8DD/L	.	(8D/L	.	(8dd\L	.	(8ddd\L	.
8EE/J	.	8E/J	.	8ee\J	.	8eee\J	.
4FF'/)	.	4F'/)	.	4ffn'\)	.	4fffn'\)	.
(8DD/L	.	(8D/L	.	(8dd\L	.	(8ddd\L	.
8EE/J	.	8E/J	.	8ee\J	.	8eee\J	.
=105	=105	=105	=105	=105	=105	=105	=105
4FFn'/)	.	4Fn'/)	.	4ffn'\)	.	4fffn'\)	.
(8DD/L	.	(8D/L	.	4r	.	4r	.
8EE/J	.	8E/J	.	.	.	.	.
4FF'/)	.	4F'/)	.	2r	.	2r	.
(8DD/L	.	(8D/L	.	.	.	.	.
8EE/J	.	8E/J	.	.	.	.	.
=106	=106	=106	=106	=106	=106	=106	=106
8FFn/L)	.	8Fn/L)	.	1r	.	2r	.
(8DD/	.	(8D/	.	.	.	.	.
8EE/	.	8E/	.	.	.	.	.
8FF/J	.	8F/J	.	.	.	.	.
8GG/L	.	8G/L	.	.	.	8r	.
8FF/	.	8F/	.	.	.	(8G/L	.
8EE/	.	8E/	.	.	.	8A/	.
8DD/J)	Xff	8D/J)	Xff	.	Xff	8B/J	Xff
=107	=107	=107	=107	=107	=107	=107	=107
4CC'/	pv	4C'/	pv	4c'/	pv	2.c/)	pv
8r	.	8r	.	8r	.	.	.
8C'/	.	8E'/	.	8G'/	.	.	.
4C'/	.	4E'/	.	4G'/	.	.	.
8r	.	8r	.	8r	.	(8ccc\L	.
8C'/	.	8E'/	.	8G'/	.	8ddd\J	.
=108	=108	=108	=108	=108	=108	=108	=108
4C'/	.	4E'/	.	4G'/	.	4eee'\)	.
8r	.	8r	.	8r	.	8r	.
8C'/	.	8E'/	.	8G'/	.	8ddd'\	.
4C'/	.	4Fn'/	.	4A'/	.	4ccc'\	.
8r	.	8r	.	8r	.	8r	.
8C'/	.	8Fn'/	.	8B'/	.	8aa'\	.
=109	=109	=109	=109	=109	=109	=109	=109
4C'/	.	4E'/	.	4c'/	.	2.gg\	.
8r	.	8r	.	8r	.	.	.
8C'/	.	8E'/	.	8G'/	.	.	.
4C'/	.	4E'/	.	4G'/	.	.	.
8r	.	8r	.	8r	.	(8ccc\L	.
8C'/	.	8E'/	.	8G'/	.	8ddd\J	.
=110	=110	=110	=110	=110	=110	=110	=110
4C'/	.	4E'/	.	4G'/	.	8eee\L	.
.	.	.	.	.	.	8ddd\)	.
8r	.	8r	.	8r	.	8ccc'\	.
8C'/	.	8E'/	.	8G'/	.	8bb'\J	.
4C'/	.	4Fn'/	.	4A'/	.	(8ddd\L	.
.	.	.	.	.	.	8ccc\)	.
8r	.	8r	.	8r	.	8bb'\	.
8C'/	.	8F'/	.	8B'/	.	8aa'\J	.
=111	=111	=111	=111	=111	=111	=111	=111
4C'/	.	4E'/	.	4c'/	.	[2gg\	.
8r	.	8r	.	8r	.	.	.
8C'/	.	8E'/	.	8G'/	.	.	.
4C'/	.	4E'/	.	4G'/	.	4.gg\]	.
8r	.	8r	.	8r	.	.	.
8C'/	.	8E'/	.	8G'/	.	8ffn'\	.
=112	=112	=112	=112	=112	=112	=112	=112
4C'/	.	4E'/	.	4G'/	.	4ee'\	.
8r	.	8r	.	8r	.	8r	.
8C'/	.	8E'/	.	8G'/	.	8dd'\	.
4C'/	.	4E'/	.	4G'/	.	4cc'\	.
8r	.	8r	.	8r	.	8r	.
8C'/	.	8E'/	.	8G'/	.	8b'\	.
=113	=113	=113	=113	=113	=113	=113	=113
.	.	.	.	.	.	(bq/	.
4C'/	.	4E'/	.	4G'/	.	4a/	.
8r	.	8r	.	8r	.	8g/L	.
8C'/	.	8E'/	.	8G'/	.	8a/J)	.
4BB'/	.	4E'/	.	4G'/	.	[2b\	.
8r	.	8r	.	8r	.	.	.
8BB'/	.	8E'/	.	8G'/	.	.	.
=114	=114	=114	=114	=114	=114	=114	=114
4BB'/	.	4F#'/	.	4A'/	.	(4b\]	.
8r	.	8r	.	8r	.	8cc#\L	<
8BB'/	<	8F#'/	<	8A'/	<	8dd#\J	.
4BB'/	.	4F#'/	.	4A'/	.	4ee\	.
8r	.	8r	.	8r	.	8ff#\L	.
8BB'/	.	8F#'/	.	8A'/	.	8dd#\J)	.
=115	=115	=115	=115	=115	=115	=115	=115
4E'\	.	4E'/	.	4G'/	.	8ee\	.
.	.	.	.	.	.	8r	.
8r	.	8r	.	8r	.	(8ee\L	.
8E'\	.	8G'/	.	8g'/	.	8ffn\J	.
4D'\	.	4G'/	.	4fn'/	.	8gg\)	.
.	.	.	.	.	.	8r	.
8r	.	8r	.	8r	.	(8aa\L	.
8D'\	Xf	8G'/	Xf	8f'/	Xf	8bb\J	Xf
=116	=116	=116	=116	=116	=116	=116	=116
4C'/	pv	4G'/	pv	4e'/	pv	2.cccn\)	pv
8r	.	8r	.	8r	.	.	.
8c'\	.	8e'\	.	8g'/	.	.	.
4c'\	.	4e'\	.	4g'/	.	.	.
8r	.	8r	.	8r	.	(8ccc\L	.
8c'\	.	8e'\	.	8g'/	.	8dddn\J	.
=117	=117	=117	=117	=117	=117	=117	=117
4c'\	.	4e'\	.	4g'/	.	4eee'\)	.
8r	.	8r	.	8r	.	8r	.
8c'\	.	8e'\	.	8g'/	.	8ddd'\	.
4c'\	.	4fn'\	.	4a'/	.	4ccc'\	.
8r	.	8r	.	8r	.	8r	.
8c'\	.	8f'\	.	8b'\	.	8aa'\	.
=118	=118	=118	=118	=118	=118	=118	=118
4c'\	.	4e'\	.	4cc'\	.	2.gg\	.
8r	.	8r	.	8r	.	.	.
8c'\	.	8e'\	.	8g'/	.	.	.
4c'\	.	4e'\	.	4g'/	.	.	.
8r	.	8r	.	8r	.	(8ccc\L	.
8c'\	.	8e'\	.	8g'/	.	8ddd\J	.
=119	=119	=119	=119	=119	=119	=119	=119
4c'\	.	4e'\	.	4g'/	.	8eee\L	.
.	.	.	.	.	.	8ddd\)	.
8r	.	8r	.	8r	.	8ccc'\	.
8c'\	.	8e'\	.	8g'/	.	8bb'\J	.
4c'\	.	4fn'\	.	4a'/	.	(8ddd\L	.
.	.	.	.	.	.	8ccc\)	.
8r	.	8r	.	8r	.	8bb'\	.
8c'\	.	8f'\	.	8b'\	.	8aa'\J	.
=120	=120	=120	=120	=120	=120	=120	=120
4c'\	.	4e'\	.	4cc'\	.	[2gg\	.
8r	.	8r	.	8r	.	.	.
8c'\	.	8e'\	.	8g'/	.	.	.
4c'\	.	4e'\	.	4g'/	.	4.gg\]	.
8r	.	8r	.	8r	.	.	.
8c'\	.	8e'\	.	8g'/	.	8ffn'\	.
=121	=121	=121	=121	=121	=121	=121	=121
4c'\	.	4e'\	.	4g'/	.	4ee'\	.
8r	.	8r	.	8r	.	8r	.
8c'\	.	8e'\	.	8g'/	.	8dd'\	.
4c'\	.	4e'\	.	4g'/	.	4cc'\	.
8r	.	8r	.	8r	.	8r	.
8c'\	.	8e'\	.	8g'/	.	8b'\	.
=122	=122	=122	=122	=122	=122	=122	=122
.	.	.	.	.	.	(bq/	.
4c'\	.	4e'\	.	4g'/	.	4a/	.
8r	.	8r	.	8r	.	8g/L	.
8c'\	.	8e'\	.	8g'/	.	8a/J)	.
4B'\	.	4e'\	.	4g'/	.	[2b\	.
8r	.	8r	.	8r	.	.	.
8B'\	.	8e'\	.	8g'/	.	.	.
=123	=123	=123	=123	=123	=123	=123	=123
4B'\	.	4f#'\	.	4a'/	.	(4b\]	.
8r	<	8r	<	8r	<	8cc#\L	<
8B'\	.	8f#'\	.	8a'/	.	8dd#\J	.
4B'\	.	4f#'\	.	4a'/	.	4ee\	.
8r	.	8r	.	8r	.	8ff#\L	.
8B'\	.	8f#'\	.	8a'/	.	8dd#\J)	.
=124	=124	=124	=124	=124	=124	=124	=124
4e'\	.	4B'/	.	4g'/	.	2ee'\	.
8r	.	8r	.	8r	.	.	.
8E'\	.	8B'/	.	8e'/	.	.	.
4E'\	.	4B'/	.	4e'/	.	2gg'\	.
8r	.	8r	.	8r	.	.	.
8E'\	Xf	8B'/	Xf	8e'/	Xf	.	Xf
=125	=125	=125	=125	=125	=125	=125	=125
4F#'\	pv	4A#'/	pv	4c#'/	pv	2.ff#\	pv
8r	.	8r	.	8r	.	.	.
8F#'\	.	8A#'/	.	8c#'/	.	.	.
4F#'\	.	4A#'/	.	4c#'/	.	.	.
8r	.	8r	.	8r	.	4ccc#\	.
8F#'\	.	8A#'/	.	8c#'/	.	.	.
=126	=126	=126	=126	=126	=126	=126	=126
4F#'\	.	4A#'/	.	4c#'/	.	(8ccc#\L	.
.	.	.	.	.	.	8aa#\J)	.
8r	.	8r	.	8r	.	4ff#'\	.
8F#'\	.	8A#'/	.	8c#'/	.	.	.
4F#'\	.	4A#'/	.	4c#'/	.	4ff#'\	.
8r	.	8r	.	8r	.	4ff#'\	.
8F#'\	.	8A#'/	.	8c#'/	.	.	.
=127	=127	=127	=127	=127	=127	=127	=127
2F#'\	<	2A#'/	<	2c#'/	<	2ff#'\	<
2D'\	.	2An'/	.	2f#'/	.	2cccn'\	.
=128	=128	=128	=128	=128	=128	=128	=128
2G'\	.	2d'\	.	2fn'/	.	2bb'\	.
2GG'/	Xf	2G'/ 2d'/	Xf	2ffn'\	Xf	2bb'\	Xf
=129	=129	=129	=129	=129	=129	=129	=129
4C/	pv	4G/	pv	4ee\	pv	2.ccc\	pv
8r	.	8r	.	8r	.	.	.
8CC/ 8C/	.	8E/ 8G/	.	8g/	.	.	.
4CC/ 4C/	.	4E/ 4G/	.	4g/	.	.	.
8r	.	8r	.	8r	.	(8ccc\L	.
8CC/ 8C/	.	8E/ 8G/	.	8g/	.	8ddd\J	.
=130	=130	=130	=130	=130	=130	=130	=130
4CC'/ 4C'/	.	4E'/ 4G'/	.	4g'/	.	4eee'\)	.
8r	.	8r	.	8r	.	8r	.
8CC'/ 8C'/	.	8E'/ 8G'/	.	8g'/	.	8ddd'\	.
4CC'/ 4C'/	.	4Fn'/ 4A'/	.	4a'/	.	4ccc'\	.
8r	.	8r	.	8r	.	8r	.
8CC'/ 8C'/	.	8F'/	.	8b'\	.	8aa'\	.
=131	=131	=131	=131	=131	=131	=131	=131
4CC'/ 4C'/	.	4E'/	.	4cc'\	.	2.gg\	.
8r	.	8r	.	8r	.	.	.
8CC'/ 8C'/	.	8E'/ 8G'/	.	8g'/	.	.	.
4CC'/ 4C'/	.	4E'/ 4G'/	.	4g'/	.	.	.
8r	.	8r	.	8r	.	(8ccc\L	.
8CC'/ 8C'/	.	8E'/ 8G'/	.	8g'/	.	8ddd\J	.
=132	=132	=132	=132	=132	=132	=132	=132
4CC'/ 4C'/	.	4E'/ 4G'/	.	4g'/	.	8eee\L	.
.	.	.	.	.	.	8ddd\)	.
8r	.	8r	.	8r	.	8ccc'\	.
8CC'/ 8C'/	.	8E'/ 8G'/	.	8g'/	.	8bb'\J	.
4CC'/ 4C'/	.	4Fn'/ 4A'/	.	4a'/	.	(8ddd\L	.
.	.	.	.	.	.	8ccc\)	.
8r	.	8r	.	8r	.	8bb'\	.
8CC'/ 8C'/	.	8F'/	.	8b'\	.	8aa'\J	.
=133	=133	=133	=133	=133	=133	=133	=133
4CC'/ 4C'/	.	4E'/	.	4cc'\	.	[2gg\	.
8r	.	8r	.	8r	.	.	.
8CC'/ 8C'/	.	8E'/ 8G'/	.	8g'/	.	.	.
4CC'/ 4C'/	.	4E'/ 4G'/	.	4g'/	.	4.gg\]	.
8r	.	8r	.	8r	.	.	.
8CC'/ 8C'/	.	8E'/ 8G'/	.	8g'/	.	8ffn\	.
=134	=134	=134	=134	=134	=134	=134	=134
4CC'/ 4C'/	.	4E'/ 4G'/	.	4g'/	.	4ee'\	.
8r	.	8r	.	8r	.	8r	.
8CC'/ 8C'/	.	8E'/ 8G'/	.	8g'/	.	8dd'\	.
4CC'/ 4C'/	.	4E'/ 4G'/	.	4g'/	.	4cc'\	.
8r	.	8r	.	8r	.	8r	.
8CC'/ 8C'/	.	8E'/ 8G'/	.	8g'/	.	8b'\	.
=135	=135	=135	=135	=135	=135	=135	=135
.	.	.	.	.	.	(bq/	.
4CC'/ 4C'/	.	4E'/ 4G'/	.	4g'/	.	4a/	.
8r	.	8r	.	8r	.	8g/L	.
8CC'/ 8C'/	.	8E'/ 8G'/	.	8g'/	.	8a/J)	.
4BB'/	.	4E'/ 4G'/	.	4g'/	.	[2b\	.
8r	.	8r	.	8r	.	.	.
8BB'/	.	8E'/ 8G'/	.	8g'/	.	.	.
=136	=136	=136	=136	=136	=136	=136	=136
4BB'/	.	4F#'/ 4A'/	.	4a'/	.	(4b\]	.
8r	.	8r	.	8r	.	8cc#\L	<
8BB'/	<	8F#'/ 8A'/	<	8a'/	<	8dd#\J	.
4BB'/	.	4F#'/ 4A'/	.	4a'/	.	4ee\	.
8r	.	8r	.	8r	.	8ff#\L	.
8BB'/	.	8F#'/ 8A'/	.	8a'/	.	8dd#\J)	.
=137	=137	=137	=137	=137	=137	=137	=137
4E'\	.	4E'/ 4G'/	.	4g'/	.	2ee'\	.
8r	.	8r	.	8r	.	.	.
8EE'/	.	8B'/	.	8e'/	.	.	.
4EE'/	.	4B'/	.	4e'/	.	2gg'\	.
8r	.	8r	.	8r	.	.	.
8EE'/	Xf	8B'/	Xf	8g'/	Xf	.	Xf
=138	=138	=138	=138	=138	=138	=138	=138
4FF#'/	pv	4A#'/	pv	2.f#/	pv	(8ccc#\L	pv
.	.	.	.	.	.	8aa#\J)	.
8r	.	8r	.	.	.	4ff#'\	.
8F#'\	.	8A#'/	.	.	.	.	.
4F#'\	.	4A#'/	.	.	.	4ff#'\	.
8r	.	8r	.	4cc#\	.	4ff#'\	.
8F#'\	.	8A#'/	.	.	.	.	.
=139	=139	=139	=139	=139	=139	=139	=139
4F#'\	.	4A#'/	.	(8cc#\L	.	2.ff#\	.
.	.	.	.	8a#\J)	.	.	.
8r	.	8r	.	4f#'/	.	.	.
8F#'\	.	8A#'/	.	.	.	.	.
4F#'\	.	4A#'/	.	4f#'/	.	.	.
8r	.	8r	.	4f#'/	.	4ccc#\	.
8F#'\	.	8A#'/	.	.	.	.	.
=140	=140	=140	=140	=140	=140	=140	=140
2F#'\	<	2A#'/	<	2f#'/	<	(8ccc#\L	<
.	.	.	.	.	.	8aa#\J)	.
.	.	.	.	.	.	4ff#'\	.
2D'\	.	2An'/	.	2ccn'\	.	(8cccn\L	.
.	.	.	.	.	.	8aan\J)	.
.	.	.	.	.	.	4ff#'\	.
=141	=141	=141	=141	=141	=141	=141	=141
2G'\	.	2G'/	.	2b'\	.	(8ddd\L	.
.	.	.	.	.	.	8bb\J)	.
.	.	.	.	.	.	4ffn'\	.
2GG'/	.	2G'/ 2d'/	.	2ffn'\	.	(8ddd\L	.
.	.	.	.	.	.	8bb\J)	.
.	Xf	.	Xf	.	Xf	4gg'\	Xf
=142	=142	=142	=142	=142	=142	=142	=142
4CC'/ 4C'/	pv	4G'/	pv	2.ee\	pv	4eee'\	pv
8r	.	8r	.	.	.	8r	.
8CC'/ 8C'/	.	8E'/	.	.	.	8ddd'\	.
4CC'/ 4C'/	.	4E'/	.	.	.	4ccc'\	.
8r	.	8r	.	(8cc\L	.	8r	.
8CC'/ 8C'/	.	8Fn'/	.	8dd\J	.	8aa'\	.
=143	=143	=143	=143	=143	=143	=143	=143
4CC'/ 4C'/	.	4E'/	.	4ee'\)	.	4gg\	.
8r	.	8r	.	8r	.	4r	.
8CC'/ 8C'/	.	8E'/ 8G'/	.	8dd'\	.	.	.
4CC'/ 4C'/	.	4E'/ 4G'/	.	4cc'\	.	4r	.
8r	.	8r	.	8r	.	(8ccc\L	.
8CC'/ 8C'/	.	8Fn'/ 8A'/	.	8a'/	.	8ddd\J	.
=144	=144	=144	=144	=144	=144	=144	=144
4CC'/ 4C'/	.	4E'/ 4G'/	.	4g/	.	8eee\L	.
.	.	.	.	.	.	8ddd\)	.
8r	.	8r	.	4r	.	8ccc'\	.
8CC'/ 8C'/	.	8E'/	.	.	.	8bb'\J	.
4CC'/ 4C'/	.	4E'/	.	4r	.	(8ddd\L	.
.	.	.	.	.	.	8ccc\)	.
8r	.	8r	.	(8cc\L	.	8bb'\	.
8CC'/ 8C'/	.	8Fn'/	.	8dd\J	.	8aa'\J	.
=145	=145	=145	=145	=145	=145	=145	=145
4CC'/ 4C'/	.	4E'/	.	8ee\L	.	4gg\	.
.	.	.	.	8dd\)	.	.	.
8r	.	8r	.	8cc'\	.	4r	.
8CC'/ 8C'/	.	8E'/ 8G'/	.	8b'\J	.	.	.
4CC'/ 4C'/	.	4E'/ 4G'/	.	(8dd\L	.	4r	.
.	.	.	.	8cc\)	.	.	.
8r	.	8r	.	8b'\	.	(8ccc\L	.
8CC'/ 8C'/	.	8Fn'/ 8A'/	.	8a'\J	.	8ddd\J)	.
=146	=146	=146	=146	=146	=146	=146	=146
1C	ff	1E	ff	4g/	ff	8eee'\L	ff
.	.	.	.	.	.	8ddd'\	.
.	.	.	.	4r	.	8ccc'\	.
.	.	.	.	.	.	8bb'\J	.
.	.	.	.	2r	.	8ccc'\L	.
.	.	.	.	.	.	8bb'\	.
.	.	.	.	.	.	8aa'\	.
.	.	.	.	.	.	8gg'\J	.
=147	=147	=147	=147	=147	=147	=147	=147
1Fn	v	1A	v	1r	.	8aa'\L	.
.	.	.	.	.	.	8gg'\	.
.	.	.	.	.	.	8ffn'\	.
.	.	.	.	.	.	8ee'\J	.
.	.	.	.	.	.	8ff'\L	.
.	.	.	.	.	.	8ee'\	.
.	.	.	.	.	.	8dd'\	.
.	.	.	.	.	.	8cc'\J	.
=148	=148	=148	=148	=148	=148	=148	=148
2D\	.	2Fn/	.	1r	.	8b'\L	.
.	.	.	.	.	.	8cc'\	.
.	.	.	.	.	.	8dd'\	.
.	.	.	.	.	.	8ee'\J	.
2B\	v	2d\	v	.	.	8ffn'\L	.
.	.	.	.	.	.	8ee'\	.
.	.	.	.	.	.	8dd'\	.
.	.	.	.	.	.	8cc'\J	.
=149	=149	=149	=149	=149	=149	=149	=149
2G\	.	2B/	.	1r	.	8b'\L	.
.	.	.	.	.	.	8cc'\	.
.	.	.	.	.	.	8dd'\	.
.	.	.	.	.	.	8cc'\J	.
2d\	v	2fn\	v	.	.	8b'\L	.
.	.	.	.	.	.	8g'\	.
.	.	.	.	.	.	8a'\	.
.	.	.	.	.	.	8b'\J	.
=150	=150	=150	=150	=150	=150	=150	=150
8c'\L	ff	4e\	ff	2r	ff	1cc 1ee	ff
8B'\	.	.	.	.	.	.	.
8A'\	.	4r	.	.	.	.	.
8G'\J	.	.	.	.	.	.	.
8A'\L	.	2c\	.	2e/	.	.	.
8G'\	.	.	.	.	.	.	.
8Fn'\	.	.	.	.	.	.	.
8E'\J	.	.	.	.	.	.	.
=151	=151	=151	=151	=151	=151	=151	=151
8Fn'\L	.	1fn	v	1a	v	1aa	v
8E'\	.	.	.	.	.	.	.
8D'\	.	.	.	.	.	.	.
8C'\J	.	.	.	.	.	.	.
8F'\L	.	.	.	.	.	.	.
8E'\	.	.	.	.	.	.	.
8D'\	.	.	.	.	.	.	.
8C'\J	.	.	.	.	.	.	.
=152	=152	=152	=152	=152	=152	=152	=152
8D'/L	.	2d\	.	2fn/	.	2ffn\	.
8C'/	.	.	.	.	.	.	.
8BB'/	.	.	.	.	.	.	.
8AA'/J	.	.	.	.	.	.	.
8BB'/L	.	[2b\	v	[2dd\	v	2ddd\	v
8AA'/	.	.	.	.	.	.	.
8GG#'/	.	.	.	.	.	.	.
8FF#'/J	.	.	.	.	.	.	.
=153	=153	=153	=153	=153	=153	=153	=153
8GG#'/L	.	2b\]	.	2dd\_	.	2bb\	.
8AA'/	.	.	.	.	.	.	.
8BB'/	.	.	.	.	.	.	.
8AA'/J	.	.	.	.	.	.	.
8GG#'/L	.	2e\	v	8dd\L]	.	2eee\	v
8EE'/	.	.	.	8g#'\	.	.	.
8FF#'/	.	.	.	8a'\	.	.	.
8GG#'/J	.	.	.	8b'\J	.	.	.
=154	=154	=154	=154	=154	=154	=154	=154
1AA	.	1C	.	4cc\	.	8ccc'\L	.
.	.	.	.	.	.	8bb'\	.
.	.	.	.	4r	.	8aa'\	.
.	.	.	.	.	.	8gg#'\J	.
.	.	.	.	2r	.	8aa'\L	.
.	.	.	.	.	.	8ggn'\	.
.	.	.	.	.	.	8ffn'\	.
.	.	.	.	.	.	8ee'\J	.
=155	=155	=155	=155	=155	=155	=155	=155
1D	v	1Fn	v	1r	.	8ffn'\L	.
.	.	.	.	.	.	8ee'\	.
.	.	.	.	.	.	8dd'\	.
.	.	.	.	.	.	8cc'\J	.
.	.	.	.	.	.	8dd'\L	.
.	.	.	.	.	.	8cc'\	.
.	.	.	.	.	.	8b'\	.
.	.	.	.	.	.	8a'\J	.
=156	=156	=156	=156	=156	=156	=156	=156
2BB/	.	2D/	.	1r	.	8g#'/L	.
.	.	.	.	.	.	8a'/	.
.	.	.	.	.	.	8b'/	.
.	.	.	.	.	.	8cc'/J	.
2G#\	v	2B/	v	.	.	8dd'\L	.
.	.	.	.	.	.	8cc'\	.
.	.	.	.	.	.	8b'\	.
.	.	.	.	.	.	8a'\J	.
=157	=157	=157	=157	=157	=157	=157	=157
2E\	.	2G#/	.	1r	.	8g#'/L	.
.	.	.	.	.	.	8a'/	.
.	.	.	.	.	.	8b'/	.
.	.	.	.	.	.	8a'/J	.
2B\	v	2d\	v	.	.	8g#'/L	.
.	.	.	.	.	.	8e'/	.
.	.	.	.	.	.	8f#'/	.
.	.	.	.	.	.	8g#'/J	.
=158	=158	=158	=158	=158	=158	=158	=158
8A'\L	.	4c\	.	2r	.	1a 1cc	.
8Gn'\	.	.	.	.	.	.	.
8Fn'\	.	4r	.	.	.	.	.
8E'\J	.	.	.	.	.	.	.
8A'\L	.	2A/	.	2c/	.	.	.
8G'\	.	.	.	.	.	.	.
8F'\	.	.	.	.	.	.	.
8E'\J	.	.	.	.	.	.	.
=159	=159	=159	=159	=159	=159	=159	=159
8Fn'\L	.	[1d	v	[1fn	v	1ffn	v
8E'\	.	.	.	.	.	.	.
8D'\	.	.	.	.	.	.	.
8C'\J	.	.	.	.	.	.	.
8D'/L	.	.	.	.	.	.	.
8C'/	.	.	.	.	.	.	.
8BB-'/	.	.	.	.	.	.	.
8AA'/J	.	.	.	.	.	.	.
=160	=160	=160	=160	=160	=160	=160	=160
8BB-'/L	.	2d\]	.	2f/]	.	2dd\	.
8AA'/	.	.	.	.	.	.	.
8GG'/	.	.	.	.	.	.	.
8FFn'/J	.	.	.	.	.	.	.
8GG'/L	.	[2g\	v	[2b-\	v	2bb-\	v
8FF'/	.	.	.	.	.	.	.
8EE'/	.	.	.	.	.	.	.
8DD'/J	.	.	.	.	.	.	.
=161	=161	=161	=161	=161	=161	=161	=161
8EE'/L	.	2g\]	.	2b-\]	.	2gg\	.
8FFn'/	.	.	.	.	.	.	.
8GG'/	.	.	.	.	.	.	.
8FF'/J	.	.	.	.	.	.	.
8EE'/L	.	2b-\	v	2gg\	v	[2ccc\	v
8CC'/	.	.	.	.	.	.	.
8DD'/	.	.	.	.	.	.	.
8EE'/J	.	.	.	.	.	.	.
=162	=162	=162	=162	=162	=162	=162	=162
4FFn/	.	4a\	.	2ffn\	.	2ccc\]	.
4r	.	8Fn'/L	.	.	.	.	.
.	.	8G'/J	.	.	.	.	.
2r	.	8A'/L	.	2cc\	.	2aa\	.
.	.	8F'/	.	.	.	.	.
.	.	8G'/	.	.	.	.	.
.	.	8A'/J	.	.	.	.	.
=163	=163	=163	=163	=163	=163	=163	=163
4r	.	4B-/	.	2dd\	.	2ffn\	.
8DD'/L	.	4r	.	.	.	.	.
8EE-'/J	.	.	.	.	.	.	.
8FFn'/L	.	2r	.	2aa-\	.	[2bb-\	.
8DD'/	.	.	.	.	.	.	.
8EE-'/	.	.	.	.	.	.	.
8FF'/J	.	.	.	.	.	.	.
=164	=164	=164	=164	=164	=164	=164	=164
4EE-/	.	4r	.	2gg\	.	2bb-\]	.
4r	.	8E-'/L	.	.	.	.	.
.	.	8Fn'/J	.	.	.	.	.
2r	.	8G'/L	.	2ee-\	.	2gg\	.
.	.	8E-'/	.	.	.	.	.
.	.	8F'/	.	.	.	.	.
.	.	8G'/J	.	.	.	.	.
=165	=165	=165	=165	=165	=165	=165	=165
4r	.	4A/	.	2cc#\	.	2ee\	.
8C#'/L	.	4r	.	.	.	.	.
8D'\J	.	.	.	.	.	.	.
8En'\L	.	8r	.	2gg\	.	(2aa\	.
8C#'\	.	8En'/L	.	.	.	.	.
8D'\	.	8Fn'/	.	.	.	.	.
8E'\J	.	8G'/J	.	.	.	.	.
=166	=166	=166	=166	=166	=166	=166	=166
2Fn\	.	2A-/	.	4ffn\	.	4dd\)	.
.	.	.	.	(8fn/L	.	4r	.
.	.	.	.	8g/J	.	.	.
2D\	.	2Fn/	.	8a-/L	.	2r	.
.	.	.	.	8f/	.	.	.
.	.	.	.	8g/	.	.	.
.	.	.	.	8a-/J	.	.	.
=167	=167	=167	=167	=167	=167	=167	=167
2BB/	.	2D/	.	4g/)	.	4r	.
.	.	.	.	4r	.	(8bb\L	.
.	.	.	.	.	.	8ccc\J	.
2Fn\	v	[2G/	v	2r	.	8ddd\L	.
.	.	.	.	.	.	8bb\	.
.	.	.	.	.	.	8ccc\	.
.	.	.	.	.	.	8ddd\J	.
=168	=168	=168	=168	=168	=168	=168	=168
2E-\	.	2G/]	.	4r	.	4ccc\)	.
.	.	.	.	(8e-/L	.	4r	.
.	.	.	.	8fn/J	.	.	.
2C/	.	2E-/	.	8g-/L	.	2r	.
.	.	.	.	8e-/	.	.	.
.	.	.	.	8f/	.	.	.
.	.	.	.	8g-/J	.	.	.
=169	=169	=169	=169	=169	=169	=169	=169
2AA/	.	2C/	.	4fn/)	.	4r	.
.	.	.	.	4r	.	(8aa\L	.
.	.	.	.	.	.	8bb-\J	.
2FFn/	.	[2Fn/	.	(2ee-\	.	8ccc\L	.
.	.	.	.	.	.	8aa\	.
.	.	.	.	.	.	8bb-\	.
.	.	.	.	.	.	8ccc\J)	.
=170	=170	=170	=170	=170	=170	=170	=170
[1BB-	pv	1F_	pv	4dd\)	pv	2.bb-\	pv
.	.	.	.	[2.d/	.	.	.
.	.	.	.	.	.	(8bb-\L	.
.	.	.	.	.	.	8ccc\J	.
=171	=171	=171	=171	=171	=171	=171	=171
1BB-_	pp	1F_	pp	1d_	pp	4ddd\)	pp
.	.	.	.	.	.	8r	.
.	.	.	.	.	.	8ccc'\	.
.	.	.	.	.	.	4bb-'\	.
.	.	.	.	.	.	8r	.
.	.	.	.	.	.	8gg'\	.
=172	=172	=172	=172	=172	=172	=172	=172
1BB-_	.	1F_	.	1d_	.	4ffn'\	.
.	.	.	.	.	.	8r	.
.	.	.	.	.	.	8ee-'\	.
.	.	.	.	.	.	4dd'\	.
.	.	.	.	.	.	8r	.
.	.	.	.	.	.	8cc'\	.
=173	=173	=173	=173	=173	=173	=173	=173
1BB-_	.	(2.F/]	.	(2.d/]	.	4b-'/	.
.	.	.	.	.	.	8r	.
.	.	.	.	.	.	8a'/	.
.	.	.	.	.	.	4b-'/	.
.	.	8G/L	.	(4e-/)	.	8r	.
.	.	8A/J)	.	.	.	8g'/	.
=174	=174	=174	=174	=174	=174	=174	=174
1BB-_	.	[1B-	.	[1d)	.	2.fn/	.
.	.	.	.	.	.	(8b-\L	.
.	.	.	.	.	.	8cc\J	.
=175	=175	=175	=175	=175	=175	=175	=175
1BB-_	.	1B-_	.	(2.d/]	.	4dd'\)	.
.	.	.	.	.	.	8r	.
.	.	.	.	.	.	8cc'\	.
.	.	.	.	.	.	4b-'\	.
.	.	.	.	4e-/)	.	8r	.
.	.	.	.	.	.	8g'/	.
=176	=176	=176	=176	=176	=176	=176	=176
1BB-_	<	4.B-/]	<	4d'/	<	4fn'/	<
.	.	.	.	8r	.	8r	.
.	.	8G'/	.	8B-'/	.	8e-'/	.
.	.	4Fn'/	.	4B-'/	.	4d'/	.
.	.	8r	.	8r	.	8r	.
.	.	8E-'/	.	8fn'/ 8a'/	.	8c'/	.
=177	=177	=177	=177	=177	=177	=177	=177
2.BB-/]	.	4D'/	.	4fn'/ 4b-'/	.	4B-'/	.
.	.	4C'/	.	4A'/	.	4a'/	.
.	.	4D'/	.	4G'/	.	(4g/	.
4BB-/	.	4D'/	.	4d'/	.	8fn/L	.
.	.	.	.	.	.	8g/J)	.
=178	=178	=178	=178	=178	=178	=178	=178
4AA'/	ff	4En/	ff	4c#/	ff	2.a/	ff
4GG'/	.	4r	.	4r	.	.	.
(4FFn/	.	2r	.	2r	.	.	.
8EE/L	.	.	.	.	.	4A/	.
8FF/J)	.	.	.	.	.	.	.
=179	=179	=179	=179	=179	=179	=179	=179
4GG'/	.	1r	.	1r	.	2.a/	.
4FFn'/	.	.	.	.	.	.	.
(4EE/	.	.	.	.	.	.	.
8DD/L	.	.	.	.	.	4A/	.
8EE/J)	.	.	.	.	.	.	.
=180	=180	=180	=180	=180	=180	=180	=180
4FFn'/	.	1r	.	4aa'\	.	2.a/	.
4EE'/	.	.	.	4gg'\	.	.	.
(4DD/	.	.	.	(4ffn\	.	.	.
8CC#/L	.	.	.	8ee\L	.	4A/	.
8DD/J)	.	.	.	8ff\J)	.	.	.
=181	=181	=181	=181	=181	=181	=181	=181
4EE'/	.	4e'\	.	4gg'\	.	4a/	.
4FFn'/	.	4d'\	.	4ffn'\	.	4A/	.
(4GG/	.	(4c#\	.	(4ee\	.	4a/	.
8AA/L	.	8B/L	.	8dd\L	.	4A/	.
8GG/J)	.	8c#\J)	.	8ee\J)	.	.	.
=182	=182	=182	=182	=182	=182	=182	=182
4FFn/	.	2.d\	.	4ffn\	.	4ffn'\	.
4r	.	.	.	4r	.	4ee'\	.
2r	.	.	.	2r	.	(4dd\	.
.	.	4D/	.	.	.	8cc#\L	.
.	.	.	.	.	.	8dd\J)	.
=183	=183	=183	=183	=183	=183	=183	=183
2r	.	2.d\	.	2r	.	4ee-'\	.
.	.	.	.	.	.	4dd'\	.
4r	.	.	.	4r	.	(4ccn\	.
4A\	.	4D/	.	4ff#\	.	8b\L	.
.	.	.	.	.	.	8cc\J)	.
=184	=184	=184	=184	=184	=184	=184	=184
4B-'\	.	2.d\	.	4gg'\	.	4dd'\	.
4A'\	.	.	.	4aa'\	.	4cc'\	.
(4G\	.	.	.	(4bb-\	.	(4b-/	.
8F#\L	.	4D/	.	8ccc\L	.	8a/L	.
8G\J)	.	.	.	8bb-\J)	.	8b-\J)	.
=185	=185	=185	=185	=185	=185	=185	=185
4A'\	.	4d\	.	4aa'\	.	4cc'\	.
4G'\	.	4D/	.	4bb-'\	.	4b-'\	.
(4F#\	.	4d\	.	(4ccc\	.	(4a/	.
8E\L	.	4D/	.	8ddd\L	.	8g/L	.
8F#\J)	.	.	.	8ccc\J)	.	8a/J)	.
=186	=186	=186	=186	=186	=186	=186	=186
2.G\	.	4g'\	.	4bbn\	.	4bn\	.
.	.	4fn'\	.	4r	.	4r	.
.	.	(4e-\	.	2r	.	2r	.
4GG/	.	8d\L	.	.	.	.	.
.	.	8e-\J)	.	.	.	.	.
=187	=187	=187	=187	=187	=187	=187	=187
2.G\	.	4fn'\	.	1r	.	4aa-'\	.
.	.	4e-'\	.	.	.	4gg'\	.
.	.	(4d\	.	.	.	(4ffn\	.
4GG/	.	8c\L	.	.	.	8ee-\L	.
.	.	8d\J)	.	.	.	8ff\J)	.
=188	=188	=188	=188	=188	=188	=188	=188
2.G\	.	4e-'\	.	4c'/	.	4gg'\	.
.	.	4d'\	.	4d'/	.	4ffn'\	.
.	.	(4c\	.	(4e-/	.	(4ee-\	.
4GG/	.	8B\L	.	8fn/L	.	8dd\L	.
.	.	8c\J)	.	8e-/J)	.	8ee-\J)	.
=189	=189	=189	=189	=189	=189	=189	=189
4G\	.	4d'\	.	4d'/	.	4ffn'\	.
4GG/	.	4c'\	.	4e-'/	.	4ee-'\	.
4G\	.	(4B/	.	(4fn/	.	(4dd\	.
4GG/	.	8A/L	.	8g/L	.	8cc\L	.
.	.	8B/J)	.	8f/J)	.	8dd\J)	.
=190	=190	=190	=190	=190	=190	=190	=190
1C	.	1c	.	[1en	.	4een\	.
.	.	.	.	.	.	(8ee\L	.
.	.	.	.	.	.	8ffn\J	.
.	.	.	.	.	.	4gg\	.
.	.	.	.	.	.	8aa\L	.
.	.	.	.	.	.	8bb-\J)	.
=191	=191	=191	=191	=191	=191	=191	=191
4C#/	.	4A/	.	4e/]	.	[1aa	.
(8E\L	.	(8A/L	.	(8c#/L	.	.	.
8D/J	.	8B/J	.	8d/J	.	.	.
4C#/	.	4c#\	.	4e/	.	.	.
8BB/L	.	8d\L	.	8fn/L	.	.	.
8AA/J)	.	8e\J)	.	8g/J)	.	.	.
=192	=192	=192	=192	=192	=192	=192	=192
1D	.	1d	.	1fn	.	4aa\]	.
.	.	.	.	.	.	(8ffn\L	.
.	.	.	.	.	.	8gg\J	.
.	.	.	.	.	.	4aa\	.
.	.	.	.	.	.	8bbn\L	.
.	.	.	.	.	.	8ccc\J)	.
=193	=193	=193	=193	=193	=193	=193	=193
4D#\	.	4B/	.	4f#/	.	[1bb	.
(8F#\L	.	(8B/L	.	(8d#/L	.	.	.
8E\J	.	8c#\J	.	8e/J	.	.	.
4D#\	.	4d#\	.	4f#/	.	.	.
8C#/L	.	8e\L	.	8g/L	.	.	.
8BB/J)	.	8f#\J)	.	8a/J)	.	.	.
=194	=194	=194	=194	=194	=194	=194	=194
8E\	.	[1e	.	[1g	.	1bb_	.
8r	.	.	.	.	.	.	.
(8E\L	.	.	.	.	.	.	.
8F#\J	.	.	.	.	.	.	.
8G'\)	.	.	.	.	.	.	.
8r	.	.	.	.	.	.	.
(8G\L	.	.	.	.	.	.	.
8A\J	.	.	.	.	.	.	.
=195	=195	=195	=195	=195	=195	=195	=195
8B'\)	.	1e]	.	1g_	.	1bb_	.
8r	.	.	.	.	.	.	.
(8c#\L	.	.	.	.	.	.	.
8d#\J	.	.	.	.	.	.	.
2e\)	.	.	.	.	.	.	.
=196	=196	=196	=196	=196	=196	=196	=196
[1dn	.	[1fn	.	1g_	.	4bb\]	.
.	.	.	.	.	.	(8b\L	.
.	.	.	.	.	.	8cc\J	.
.	.	.	.	.	.	8dd\)	.
.	.	.	.	.	.	8r	.
.	.	.	.	.	.	(8dd\L	.
.	.	.	.	.	.	8ee\J	.
=197	=197	=197	=197	=197	=197	=197	=197
1d]	.	1f]	.	1g_	.	8ffn\)	.
.	.	.	.	.	.	8r	.
.	.	.	.	.	.	(8gg\L	.
.	.	.	.	.	.	8aa\J	.
.	.	.	.	.	.	2bb\)	.
=198	=198	=198	=198	=198	=198	=198	=198
8c\	.	8e\	.	1g_	.	4ccc\	.
8r	.	8r	.	.	.	.	.
(8C\L	.	(8E/L	.	.	.	4r	.
8D\J	.	8Fn/J	.	.	.	.	.
8E'\)	.	8G'/)	.	.	.	2r	.
8r	.	8r	.	.	.	.	.
(8Fn\L	.	(8A/L	.	.	.	.	.
8G\J	.	8B/J	.	.	.	.	.
=199	=199	=199	=199	=199	=199	=199	=199
8A'\)	.	8c'\)	.	2.g/]	.	2r	.
8r	.	8r	.	.	.	.	.
(8A\L	.	(8c\L	.	.	.	.	.
8B\J	.	8d\J	.	.	.	.	.
2c\)	.	2e\)	.	.	.	4r	.
.	.	.	.	4ee\	.	4g/	.
=200	=200	=200	=200	=200	=200	=200	=200
[1B	.	[1d	.	(1e	.	8g#/	.
.	.	.	.	.	.	8r	.
.	.	.	.	.	.	(8g#/L	.
.	.	.	.	.	.	8a/J	.
.	.	.	.	.	.	8b'/)	.
.	.	.	.	.	.	8r	.
.	.	.	.	.	.	(8b\L	.
.	.	.	.	.	.	8cc\J	.
=201	=201	=201	=201	=201	=201	=201	=201
1B]	.	1d]	.	4dd\)	.	8dd'\)	.
.	.	.	.	.	.	8r	.
.	.	.	.	8r	.	(8ee\L	.
.	.	.	.	8cc'\	.	8ff#\J	.
.	.	.	.	4b'\	.	2gg#\)	.
.	.	.	.	8r	.	.	.
.	.	.	.	8g#'/	.	.	.
=202	=202	=202	=202	=202	=202	=202	=202
4A\	.	4c\	.	4e/ 4cc/	.	4aa\	.
4r	.	4r	.	4r	.	(8a\L	.
.	.	.	.	.	.	8b\J	.
2r	.	2r	.	2r	.	8cc'\)	.
.	.	.	.	.	.	8r	.
.	.	.	.	.	.	(8cc\L	.
.	.	.	.	.	.	8dd\J	.
=203	=203	=203	=203	=203	=203	=203	=203
2r	.	2r	.	2r	.	8ee'\)	.
.	.	.	.	.	.	8r	.
.	.	.	.	.	.	(8ff#\L	.
.	.	.	.	.	.	8gg#\J	.
4r	.	4r	.	4r	.	2aa\)	.
(4A\	.	[4e\	.	(4cc\	.	.	.
=204	=204	=204	=204	=204	=204	=204	=204
4G\)	.	4e\]	.	4b\)	.	8bb\	.
.	.	.	.	.	.	8r	.
4r	.	4r	.	4r	.	(8ee\L	.
.	.	.	.	.	.	8ff#\J	.
2r	.	2r	.	2r	.	8ggn'\)	.
.	.	.	.	.	.	8r	.
.	.	.	.	.	.	(8gg\L	.
.	.	.	.	.	.	8aa\J	.
=205	=205	=205	=205	=205	=205	=205	=205
2r	.	2r	.	2r	.	8bb'\)	.
.	.	.	.	.	.	8r	.
.	.	.	.	.	.	(8ccc#\L	.
.	.	.	.	.	.	8ddd#\J	.
4r	.	4r	.	4r	.	2eee\)	.
4G\	.	4e\	.	4b\	.	.	.
=206	=206	=206	=206	=206	=206	=206	=206
4F#\	f	4f#\	Xf	4a/ 4b/	Xf	4r	Xf
4r	.	4f#\	.	4a/ 4b/	.	4ddd#\	.
2r	.	2f#\	v	2a/ 2b/	v	2ddd#\	v
=207	=207	=207	=207	=207	=207	=207	=207
4E\	.	4r	.	4r	.	4r	.
4r	.	4e\	.	4g/ 4b/	.	4eee\	.
2r	.	2e\	v	2g/ 2b/	v	2eee\	v
=208	=208	=208	=208	=208	=208	=208	=208
4D#\	.	4r	.	4r	.	4r	.
4r	.	4d#\	.	4f#/ 4b/	.	4fff#\	.
2r	.	2d#\	v	2f#/ 2b/	v	2fff#\	v
=209	=209	=209	=209	=209	=209	=209	=209
4E\	.	4r	.	4r	.	2ggg\	.
4e\	.	4e\	.	4b\	.	.	.
4C/	.	4r	.	4r	.	2aaa\	.
4c\	.	4e\	.	4ee\	.	.	.
=210	=210	=210	=210	=210	=210	=210	=210
4B\	.	4f#\	.	4dd#\	.	(2.bbb\	v
(8d#\L	.	(8f#\L	.	4r	.	.	.
8e\J)	.	8g\J)	.	.	.	.	.
[2f#\	v	[2a\	v	2r	.	.	.
.	.	.	.	.	.	4cccc\	.
=211	=211	=211	=211	=211	=211	=211	=211
4f#\]	.	4a\]	.	4r	.	2.bbb\	v
(8e\L	.	(8g\L	.	(8ee\L	.	.	.
8d#\J	.	8f#\J	.	8ff#\J	.	.	.
4e\	.	4g\	.	4gg\	.	.	.
4c\)	.	4e\)	.	4ee\)	.	4aaa#\)	.
=212	=212	=212	=212	=212	=212	=212	=212
4B\	.	4d#\	.	4ff#\	.	4bbb\	.
4B\	.	(8d#\L	.	(8f#/L	.	(2bb\	v
.	.	8e\J	.	8g/J	.	.	.
4B\	.	[2f#\)	v	[2a/)	v	.	.
4B\	.	.	.	.	.	4ccc\)	.
=213	=213	=213	=213	=213	=213	=213	=213
4B\	.	4f#\]	.	4a/]	.	(2.bb\	.
4B\	.	(8e\L	.	(8g/L	.	.	.
.	.	8d#\J	.	8f#/J	.	.	.
4B\	.	4e\	.	4g/	.	.	.
4B\	.	4c#\	.	4e/	.	4aa#\	.
=214	=214	=214	=214	=214	=214	=214	=214
4B\	.	4d#\)	.	4f#/)	.	4bb\)	.
4r	.	4r	.	4r	.	(2bb\	vXf
2r	.	2r	.	2r	.	.	.
.	.	.	.	.	.	4ccc\	>
=215	=215	=215	=215	=215	=215	=215	=215
2r	.	2r	.	2r	.	4aan\	.
.	.	.	.	.	.	4gg\	.
4r	.	4r	.	4r	.	4ff#\	.
(4BB/	.	(4d#\	.	(4f#/	.	4bb\)	.
=216	=216	=216	=216	=216	=216	=216	=216
4E\)	p	4e\)	p	4g/)	p	(4ee\	.
4r	.	4r	.	4r	.	4gg\	p
(4E\	.	(4e\	.	(4g/	.	4bb\	.
4BB/)	.	4g\)	.	4b/)	.	4eee\	.
=217	=217	=217	=217	=217	=217	=217	=217
2r	.	2r	.	2r	.	4ddd#\	.
.	.	.	.	.	.	4fff#\)	.
(4B\	.	(4f#\	.	(4a/	.	4r	.
4D#\)	.	4a\)	.	4b/)	.	(4fff#\	.
=218	=218	=218	=218	=218	=218	=218	=218
2r	.	2r	.	2r	.	4eee\	.
.	.	.	.	.	.	4ggg\)	.
(4B\	.	(4B/	.	(4g/	.	4r	.
4E\)	.	4g\)	.	4b/)	.	(4ggg\	.
=219	=219	=219	=219	=219	=219	=219	=219
2r	.	2r	.	2r	.	4fffn\	.
.	.	.	.	.	.	4aaa\)	.
(4c\	.	(4fn\	.	(4a/	.	4r	.
4A\)	.	4a\)	.	4cc/)	.	(4aaa\	.
=220	=220	=220	=220	=220	=220	=220	=220
2r	.	2r	.	2r	.	4ccc\	.
.	.	.	.	.	.	4fffn\	.
(4AA/	.	(4c\	.	(4fn/	.	4aaa\	.
4FFn/)	.	4fn\)	.	4a/)	.	4cccc\	.
=221	=221	=221	=221	=221	=221	=221	=221
2r	.	2r	.	2r	.	4bbb\	.
.	.	.	.	.	.	4ggg\)	.
(4BB/	.	(4e\	.	(4g/	.	4r	.
4E\)	.	4B/)	.	4b/)	.	(4ggg\	.
=222	=222	=222	=222	=222	=222	=222	=222
2r	.	2r	.	2r	.	4aaa\	.
.	.	.	.	.	.	4fff#\)	.
(4BB/	.	(4f#\	.	(4a/	.	4r	.
4D#/)	.	4B/)	.	4b/)	.	(4fff#\	.
=223	=223	=223	=223	=223	=223	=223	=223
(4E\	<	1r	.	1r	.	4ggg\	.
4G\	.	.	.	.	.	4eee\)	.
4B\	.	.	.	.	.	4r	.
4e\)	.	.	.	.	.	4eee\	.
=224	=224	=224	=224	=224	=224	=224	=224
*clefC4	*clefG2	*	*	*	*	*	*
(4G/	.	(4E/	<	2r	.	2r	.
4B\	.	4G/	.	.	.	.	.
4e\	.	4B/	.	(4gg\	<	(4bb\	<
4g\	.	4e\	.	4ee\)	.	4gg\)	.
=225	=225	=225	=225	=225	=225	=225	=225
4f#\	p	4d#\	p	2r	.	2r	.
4a\)	.	4f#\)	.	.	.	.	.
4r	.	4r	.	(4ff#\	p	(4bb\	p
(4a\	.	(4f#\	.	4dd#\)	.	4ff#\)	.
=226	=226	=226	=226	=226	=226	=226	=226
4g\	.	4e\	.	2r	.	2r	.
4b\)	.	4g\)	.	.	.	.	.
4r	.	4r	.	(4gg\	.	(4bb\	.
(4b\	.	(4g\	.	4ee\)	.	4gg\)	.
=227	=227	=227	=227	=227	=227	=227	=227
4a\	.	4fn\	.	2r	.	2r	.
4cc\)	.	4a\)	.	.	.	.	.
4r	.	4r	.	(4ffn\	.	(4aa\	.
(4cc\	.	(4a\	.	4cc\)	.	4ffn\)	.
=228	=228	=228	=228	=228	=228	=228	=228
4c\)	.	4A/)	.	2r	.	2r	.
(4fn\	.	(4c\	.	.	.	.	.
4a\	.	4fn\	.	(4aa\	.	(4ccc\	.
4cc\	.	4a\	.	4ffn\)	.	4aa\)	.
=229	=229	=229	=229	=229	=229	=229	=229
4b\	.	4g\	.	2r	.	2r	.
4g\)	.	4e\)	.	.	.	.	.
4r	.	4r	.	(4ee\	.	(4gg\	.
(4g\	.	(4e\	.	4gg\)	.	4bb\)	.
=230	=230	=230	=230	=230	=230	=230	=230
4a\	.	4f#\	.	2r	.	2r	.
4f#\)	.	4B/)	.	.	.	.	.
4r	.	4r	.	(4dd#\	.	(4ff#\	.
(4f#\	.	4B/	.	4ff#\)	.	4bb\)	.
=231	=231	=231	=231	=231	=231	=231	=231
4g\	.	4e\	.	1r	.	(4ee\	<
4e\)	.	4r	<	.	.	4gg\	.
2r	.	[2C/ [2c/	.	.	.	4bb-\	.
.	.	.	.	.	.	4eee\)	.
=232	=232	=232	=232	=232	=232	=232	=232
*clefF4	*clefF4	*	*	*	*	*	*
1AA	f	1C] 1c]	f	(4cc\	f	1fffn	f
.	.	.	.	4ffn\	.	.	.
.	.	.	.	4aa\	.	.	.
.	.	.	.	4ccc\	.	.	.
=233	=233	=233	=233	=233	=233	=233	=233
1GG	f	1C 1c	f	4bb-\	f	1eee	f
.	.	.	.	4gg\)	.	.	.
.	.	.	.	4r	.	.	.
.	.	.	.	(4gg\	.	.	.
=234	=234	=234	=234	=234	=234	=234	=234
1FFn	f	1C 1c	f	4aa\	f	1fffn	f
.	.	.	.	4ffn\)	.	.	.
.	.	.	.	4r	.	.	.
.	.	.	.	(4ffn\	.	.	.
=235	=235	=235	=235	=235	=235	=235	=235
1CC	f	1C 1c	f	4gg\	f	1eee	f
.	.	.	.	4cc\)	.	.	.
.	.	.	.	4r	.	.	.
.	.	.	.	4cc\	.	.	.
=236	=236	=236	=236	=236	=236	=236	=236
(4AA/	p	(4C/	p	2r	.	2r	.
4C/	.	4Fn/	.	.	.	.	.
4Fn\	.	4A/	.	(4a/	p	(4cc\	p
4A\	.	4c\	.	4fn/)	.	4a/)	.
=237	=237	=237	=237	=237	=237	=237	=237
4G\	.	4B/	.	2r	.	2r	.
4E\)	.	4G/)	.	.	.	.	.
4r	.	4r	.	(4e/	.	(4g/	.
(4E\	.	(4G/	.	4g/)	.	4b\)	.
=238	=238	=238	=238	=238	=238	=238	=238
4F#\	.	4A/	.	2r	.	2r	.
4BB/)	.	4F#/)	.	.	.	.	.
4r	.	4r	.	4d#/	.	(4f#/	.
4BB/	.	4F#/	.	4d#/	.	4b\)	.
=239	=239	=239	=239	=239	=239	=239	=239
4E\	.	4G/	.	(4e/	<	1r	.
4r	.	4r	.	4g/	.	.	.
2r	.	[2C/ [2c/	v	4b-\	.	.	.
.	.	.	.	4ee\)	.	.	.
=240	=240	=240	=240	=240	=240	=240	=240
1AA	f	1C] 1c]	f	1cc 1ffn	f	(4cc\	f
.	.	.	.	.	.	4ffn\	.
.	.	.	.	.	.	4aa\	.
.	.	.	.	.	.	4ccc\	.
=241	=241	=241	=241	=241	=241	=241	=241
1GG	f	1C 1c	f	1b- 1ee	f	4bb-\	f
.	.	.	.	.	.	4gg\)	.
.	.	.	.	.	.	4r	.
.	.	.	.	.	.	(4gg\	.
=242	=242	=242	=242	=242	=242	=242	=242
1FFn	f	1C 1c	f	1a 1ffn	f	4aa\	f
.	.	.	.	.	.	4ffn\)	.
.	.	.	.	.	.	4r	.
.	.	.	.	.	.	(4ffn\	.
=243	=243	=243	=243	=243	=243	=243	=243
1CC	f	1C 1c	f	1g 1ee	f	4gg\	f
.	.	.	.	.	.	4cc\)	.
.	.	.	.	.	.	4r	.
.	.	.	.	.	.	4cc\	.
=244	=244	=244	=244	=244	=244	=244	=244
(4AA/	p	(4C/	p	2r	.	2r	.
4C/	.	4Fn/)	.	.	.	.	.
4Fn\	.	4A/	.	(4aa\	p	(4ccc\	p
4A\	.	4c\	.	4ffn\)	.	4aa\)	.
=245	=245	=245	=245	=245	=245	=245	=245
4G\	.	4B/	.	2r	.	2r	.
4E\)	.	4G/	.	.	.	.	.
4r	.	4r	.	(4ee\	.	(4gg\	.
(4E\	.	(4G/	.	4gg\)	.	4bb\)	.
=246	=246	=246	=246	=246	=246	=246	=246
4F#\	.	4A/	.	2r	.	2r	.
4BB/)	.	4F#/)	.	.	.	.	.
4r	.	4r	.	(4dd#\	.	(4ff#\	.
4BB/	.	4F#/	.	4ff#\)	.	4ddd#\)	.
=247	=247	=247	=247	=247	=247	=247	=247
1EE	.	4G/	pp	4ee\	pp	(2.eee\	.
.	.	(8G/L	.	(8e/L	.	.	.
.	.	8A/J	.	8f#/J	.	.	.
.	.	2B/)	.	2g/)	.	.	.
.	.	.	.	.	.	8fff#\L	.
.	.	.	.	.	.	8eee\J	.
=248	=248	=248	=248	=248	=248	=248	=248
1EE	.	(4c/	.	(4a/	.	2.ddd#\	.
.	.	8A/L	.	8f#/L	.	.	.
.	.	8B/J	.	8g/J	.	.	.
.	.	4c/	.	4a/	.	.	.
.	.	8B/L	.	8g/L	.	8eee\L	.
.	.	8A/J)	.	8f#/J)	.	8fff#\J)	.
=249	=249	=249	=249	=249	=249	=249	=249
1EE	.	4G/	.	4e/	.	(2.eee\	.
.	.	(8G/L	.	(8e/L	.	.	.
.	.	8A/J	.	8f#/J	.	.	.
.	.	8B/L	.	8g/L	.	.	.
.	.	8G/	.	8e/	.	.	.
.	.	8A/	.	8f#/	.	8fff#\L	.
.	.	8B/J)	.	8g/J)	.	8eee\J	.
=250	=250	=250	=250	=250	=250	=250	=250
1EE	.	(2.c/	.	(2.a/	.	8ddd#\L	.
.	.	.	.	.	.	8eee\	.
.	.	.	.	.	.	8fff#\	.
.	.	.	.	.	.	8eee\J	.
.	.	.	.	.	.	8ddd#\L	.
.	.	.	.	.	.	8fff#\	.
.	.	8B/L	.	8g/L	.	8eee\	.
.	.	8A/J)	.	8f#/J)	.	8ddd#\J)	.
=251	=251	=251	=251	=251	=251	=251	=251
4EE/	.	4G/	.	4e/	.	4eee\	.
4r	.	4r	.	4r	.	(8ee\L	pp
.	.	.	.	.	.	8ff#\J	.
2r	.	2r	.	4r	.	4gg'\)	.
.	.	.	.	(8ee\L	pp	4r	.
.	.	.	.	8ff#\J	.	.	.
=252	=252	=252	=252	=252	=252	=252	=252
1r	.	2r	.	4gg'\)	.	4r	.
.	.	.	.	4r	.	(8ee\L	.
.	.	.	.	.	.	8ff#\J	.
.	.	4r	.	2r	.	4gg'\)	.
.	.	(8e\L	pp	.	.	4r	.
.	.	8f#\J	.	.	.	.	.
=253	=253	=253	=253	=253	=253	=253	=253
2r	.	4g'\)	.	4r	.	1r	.
.	.	4r	.	(8e/L	.	.	.
.	.	.	.	8f#/J	.	.	.
4r	.	2r	.	4g'/)	.	.	.
(8E\L	pp	.	.	4r	.	.	.
8F#\J	.	.	.	.	.	.	.
=254	=254	=254	=254	=254	=254	=254	=254
4G'\)	.	4r	.	2r	.	1r	.
4r	.	(8E/L	.	.	.	.	.
.	.	8F#/J	.	.	.	.	.
2r	.	4G'/)	.	4r	.	.	.
.	.	4r	.	(8e/L	.	.	.
.	.	.	.	8f#/J	.	.	.
=255	=255	=255	=255	=255	=255	=255	=255
1r	.	1r	.	4g'/)	.	4r	.
.	.	.	.	4r	.	(8ee\L	.
.	.	.	.	.	.	8ff#\J	.
.	.	.	.	2r	.	4gg'\)	.
.	.	.	.	.	.	(8ee\L	.
.	.	.	.	.	.	8ffn\J	.
=256	=256	=256	=256	=256	=256	=256	=256
1r	.	1r	.	4r	.	4gg'\)	.
.	.	.	.	(8ee\L	.	2r	.
.	.	.	.	8ffn\J	.	.	.
.	.	.	.	4gg'\)	.	.	.
.	.	.	.	4r	.	(8ee\L	.
.	.	.	.	.	.	8ffn\J	.
=257	=257	=257	=257	=257	=257	=257	=257
2r	.	1r	.	4r	.	4gg'\)	.
.	.	.	.	(8e/L	.	4r	.
.	.	.	.	8fn/J	.	.	.
4r	.	.	.	4g'/)	.	2r	.
(8E\L	.	.	.	4r	.	.	.
8Fn\J	.	.	.	.	.	.	.
=258	=258	=258	=258	=258	=258	=258	=258
4G'\)	.	4r	.	1r	.	1r	.
2r	.	(8E/L	.	.	.	.	.
.	.	8Fn/J	.	.	.	.	.
.	.	4G'/)	.	.	.	.	.
(8E\L	.	4r	.	.	.	.	.
8Fn\J	.	.	.	.	.	.	.
=259	=259	=259	=259	=259	=259	=259	=259
4G'\)	.	2r	.	4r	.	1r	.
4r	.	.	.	(8d/L	.	.	.
.	.	.	.	8e/J	.	.	.
2r	.	4r	.	4fn'/)	.	.	.
.	.	(8d\L	.	4r	.	.	.
.	.	8e\J	.	.	.	.	.
=260	=260	=260	=260	=260	=260	=260	=260
2r	.	4fn'\)	.	1r	.	4r	.
.	.	4r	.	.	.	(8dd\L	.
.	.	.	.	.	.	8ee\J	.
4r	.	2r	.	.	.	4ffn'\)	.
(8BB/L	.	.	.	.	.	4r	.
8C/J	.	.	.	.	.	.	.
=261	=261	=261	=261	=261	=261	=261	=261
4D'/)	.	2r	.	4r	.	1r	.
4r	.	.	.	(8B/L	.	.	.
.	.	.	.	8c/J	.	.	.
2r	.	4r	.	4d'/)	.	.	.
.	.	(8B\L	.	4r	.	.	.
.	.	8c\J	.	.	.	.	.
=262	=262	=262	=262	=262	=262	=262	=262
2r	.	4d'\)	.	1r	.	4r	.
.	.	4r	.	.	.	(8b\L	.
.	.	.	.	.	.	8cc\J	.
4r	.	2r	.	.	.	4dd'\)	.
(8GG/L	.	.	.	.	.	4r	.
8AA/J	.	.	.	.	.	.	.
=263	=263	=263	=263	=263	=263	=263	=263
4BB'/)	.	1r	.	1r	.	4r	.
2r	.	.	.	.	.	(8G/L	.
.	.	.	.	.	.	8A/J	.
.	.	.	.	.	.	4B'/)	.
(8AA/L	.	.	.	.	.	4r	.
8BB/J	.	.	.	.	.	.	.
=264	=264	=264	=264	=264	=264	=264	=264
4C'/)	.	1r	.	1r	.	4r	.
2r	.	.	.	.	.	(8A/L	.
.	.	.	.	.	.	8B/J	.
.	.	.	.	.	.	4c'/)	.
(8BB/L	.	.	.	.	.	4r	.
8C/J	.	.	.	.	.	.	.
=265	=265	=265	=265	=265	=265	=265	=265
4D'/)	.	1r	.	1r	.	4r	.
2r	.	.	.	.	.	(8B/L	.
.	.	.	.	.	.	8c/J	.
.	.	.	.	.	.	4d'/)	.
(8C/L	.	.	.	.	.	4r	.
8D\J	.	.	.	.	.	.	.
=266	=266	=266	=266	=266	=266	=266	=266
4E'/)	.	1r	.	1r	.	4r	.
2r	.	.	.	.	.	(8c/L	.
.	.	.	.	.	.	8d/J	.
.	.	.	.	.	.	4e'/)	.
(8D\L	.	.	.	.	.	4r	.
8E\J	.	.	.	.	.	.	.
=267	=267	=267	=267	=267	=267	=267	=267
4Fn'\)	.	1r	.	1r	.	4r	.
2r	.	.	.	.	.	(8d/L	.
.	.	.	.	.	.	8e/J	.
.	.	.	.	.	.	4fn'/)	.
(8DD/L	.	.	.	.	.	4r	.
8EE/J	.	.	.	.	.	.	.
=268	=268	=268	=268	=268	=268	=268	=268
4FFn'/)	.	4r	.	1r	.	1r	.
2r	.	(8D/L	.	.	.	.	.
.	.	8E/J	.	.	.	.	.
.	.	4Fn'/)	.	.	.	.	.
(8DD/L	.	4r	.	.	.	.	.
8EE/J	.	.	.	.	.	.	.
=269	=269	=269	=269	=269	=269	=269	=269
4FFn'/)	.	4r	.	1r	.	1r	.
2r	.	(8D/L	.	.	.	.	.
.	.	8E/J	.	.	.	.	.
.	.	4Fn'/)	.	.	.	.	.
(8DD/L	.	4r	.	.	.	.	.
8EE/J	.	.	.	.	.	.	.
=270	=270	=270	=270	=270	=270	=270	=270
4FFn'/)	.	4r	.	1r	.	4r	.
2r	.	(8D/L	.	.	.	(8d/L	.
.	.	8E/J	.	.	.	8e/J	.
.	.	4Fn'/)	.	.	.	4fn'/)	.
(8DD/L	.	4r	.	.	.	4r	.
8EE/J	.	.	.	.	.	.	.
=271	=271	=271	=271	=271	=271	=271	=271
4FFn'/)	.	4r	.	2r	.	4r	.
(8DD/L	<	(8D/L	<	.	.	(8d/L	<
8EE/J	.	8E/J	.	.	.	8e/J	.
4FF'/)	.	4Fn'/)	.	4r	.	4fn'/)	.
(8DD/L	.	(8D/L	.	(8d/L	<	(8dd\L	.
8EE/J	.	8E/J	.	8e/J	.	8ee\J	.
=272	=272	=272	=272	=272	=272	=272	=272
4FFn'/)	.	4Fn'/)	.	4fn'/)	.	4ffn'\)	.
(8DD/L	.	(8D/L	.	(8dd\L	.	(8ddd\L	.
8EE/J	.	8E/J	.	8ee\J	.	8eee\J	.
4FF'/)	.	4F'/)	.	4ffn'\)	.	4fffn'\)	.
(8DD/L	.	(8D/L	.	(8dd\L	.	(8ddd\L	.
8EE/J	.	8E/J	.	8ee\J	.	8eee\J	.
=273	=273	=273	=273	=273	=273	=273	=273
4FFn'/)	.	4Fn'/)	.	4ffn'\)	.	4fffn'\)	.
(8DD/L	.	(8D/L	.	4r	.	4r	.
8EE/J	.	8E/J	.	.	.	.	.
4FF'/)	.	4F'/)	.	2r	.	2r	.
(8DD/L	.	(8D/L	.	.	.	.	.
8EE/J	.	8E/J	.	.	.	.	.
=274	=274	=274	=274	=274	=274	=274	=274
8FFn'/L)	.	8Fn'/L)	.	1r	.	2r	.
(8DD/	.	(8D/	.	.	.	.	.
8EE/	.	8E/	.	.	.	.	.
8FF/J	.	8F/J	.	.	.	.	.
8GG/L	.	8G/L	.	.	.	8r	.
8FF/	.	8F/	.	.	.	(8G/L	.
8EE/	.	8E/	.	.	.	8A/	.
8DD/J)	Xff	8D/J)	Xff	.	Xff	8B/J	Xff
=275	=275	=275	=275	=275	=275	=275	=275
4CC'/	pv	4C'/	pv	4c'/	pv	2.c/)	pv
8r	.	8r	.	8r	.	.	.
8C'/	.	8E'/	.	8G'/	.	.	.
4C'/	.	4E'/	.	4G'/	.	.	.
8r	.	8r	.	8r	.	(8ccc\L	.
8C'/	.	8E'/	.	8G'/	.	8ddd\J	.
=276	=276	=276	=276	=276	=276	=276	=276
4C'/	.	4E'/	.	4G'/	.	8eee'\)	.
.	.	.	.	.	.	4r	.
8r	.	8r	.	8r	.	.	.
8C'/	.	8E'/	.	8G'/	.	8ddd'\	.
4C'/	.	4Fn'/	.	4A'/	.	8ccc'\	.
.	.	.	.	.	.	4r	.
8r	.	8r	.	8r	.	.	.
8C'/	.	8F'/	.	8B'/	.	8aa'\	.
=277	=277	=277	=277	=277	=277	=277	=277
4C'/	.	4E'/	.	4c'/	.	2.gg\	.
8r	.	8r	.	8r	.	.	.
8c'\	.	8e'\	.	8g'/	.	.	.
4c'\	.	4e'\	.	4g'/	.	.	.
8r	.	8r	.	8r	.	(8ccc\L	.
8c'\	.	8e'\	.	8g'/	.	8ddd\J	.
=278	=278	=278	=278	=278	=278	=278	=278
4c'\	.	4e'\	.	4g'/	.	8eee\L	.
.	.	.	.	.	.	8ddd\)	.
8r	.	8r	.	8r	.	8ccc'\	.
8c'\	.	8e'\	.	8g'/	.	8bb'\J	.
4c'\	.	4fn'\	.	4a'/	.	(8ddd\L	.
.	.	.	.	.	.	8ccc\)	.
8r	.	8r	.	8r	.	8bb'\	.
8c'\	.	8f'\	.	8b'\	.	8aa'\J	.
=279	=279	=279	=279	=279	=279	=279	=279
4c'\	.	4e'\	.	4cc'\	.	[2gg\	.
8r	.	8r	.	8r	.	.	.
8c'\	.	8e'\	.	8g'/	.	.	.
4c'\	.	4e'\	.	4g'/	.	4.gg\]	.
8r	.	8r	.	8r	.	.	.
8c'\	.	8e'\	.	8g'/	.	8ffn'\	.
=280	=280	=280	=280	=280	=280	=280	=280
4c'\	.	4e'\	.	4g'/	.	4ee'\	.
8r	.	8r	.	8r	.	8r	.
8c'\	.	8e'\	.	8g'/	.	8dd'\	.
4c'\	.	4e'\	.	4g'/	.	4cc'\	.
8r	.	8r	.	8r	.	8r	.
8c'\	.	8e'\	.	8g'/	.	8b'\	.
=281	=281	=281	=281	=281	=281	=281	=281
.	.	.	.	.	.	(bq/	.
4c'\	.	4e'\	.	4g'/	.	4a/	.
8r	.	8r	.	8r	.	8g/L	.
8c'\	.	8e'\	.	8g'/	.	8a/J)	.
4B'\	.	4e'\	.	4g'/	.	[2b\	.
8r	.	8r	.	8r	.	.	.
8B'\	.	8e'\	.	8g'/	.	.	.
=282	=282	=282	=282	=282	=282	=282	=282
4B'\	.	4f#'\	.	4a'/	.	4b\]	.
8r	<	8r	<	8r	<	(8cc#\L	<
8B'\	.	8f#'\	.	8a'/	.	8dd#\J	.
4B'\	.	4f#'\	.	4a'/	.	4ee\	.
8r	.	8r	.	8r	.	8ff#\L	.
8B'\	.	8f#'\	.	8a'/	.	8dd#\J)	.
=283	=283	=283	=283	=283	=283	=283	=283
4E'\	.	4e'\	.	4g'/	.	8ee\L	.
.	.	.	.	.	.	8r	.
8r	.	8r	.	8r	.	(8ee\	.
8E'\	.	8G'/	.	8G'/ 8g'/	.	8ffn\J	.
4D'\	.	4Fn'/	.	4G'/ 4g'/	.	8gg'\L)	.
.	.	.	.	.	.	8r	.
8r	.	8r	.	8r	.	(8aa\	.
8D'\	Xf	8F'/	Xf	8G'/ 8g'/	Xf	8bb\J	Xf
=284	=284	=284	=284	=284	=284	=284	=284
4C'/	pv	4E'/	pv	4G/ 4g/	pv	2.ccc\)	pv
8r	.	8r	.	(8e/L	.	.	.
8C'/	.	8E'/	.	8fn/J	.	.	.
4C'/	.	4E'/	.	8g/)	.	.	.
.	.	.	.	8r	.	.	.
8r	.	8r	.	(8a/L	.	(8ccc\L	.
8C'/	.	8E'/	.	8b/J	.	8ddd\J	.
=285	=285	=285	=285	=285	=285	=285	=285
4C'/	.	4E'/	.	2.cc\)	.	4eee'\)	.
8r	.	8r	.	.	.	8r	.
8C'/	.	8E'/	.	.	.	8ddd'\	.
4C'/	.	4E'/	.	.	.	4ccc'\	.
8r	.	8r	.	(8cc\L	.	8r	.
8C'/	.	8Fn'/	.	8dd\J	.	8aa'\	.
=286	=286	=286	=286	=286	=286	=286	=286
4C'/	.	4E'/	.	4ee'\)	.	2.gg\	.
8r	.	8r	.	8r	.	.	.
8C'/	.	8E'/	.	8dd'\	.	.	.
4C'/	.	4E'/	.	4cc'\	.	.	.
8r	.	8r	.	8r	.	(8ccc\L	.
8C'/	.	8Fn'/	.	8a'/	.	8ddd\J	.
=287	=287	=287	=287	=287	=287	=287	=287
4C'/	.	4E'/	.	2.g/	.	8eee\L	.
.	.	.	.	.	.	8ddd\)	.
8r	.	8r	.	.	.	8ccc'\	.
8C'/	.	8E'/	.	.	.	8bb'\J	.
4C'/	.	4E'/	.	.	.	(8ddd\L	.
.	.	.	.	.	.	8ccc\)	.
8r	.	8r	.	(8cc\L	.	8bb'\	.
8C'/	.	8Fn'/	.	8dd\J	.	8aa'\J	.
=288	=288	=288	=288	=288	=288	=288	=288
4C'/	.	4E'/	.	8ee\L	.	[2gg\	.
.	.	.	.	8dd\)	.	.	.
8r	.	8r	.	8cc'\	.	.	.
8C'/	.	8E'/	.	8b'\J	.	.	.
4C'/	.	4E'/	.	(8dd\L	.	4.gg\]	.
.	.	.	.	8cc\)	.	.	.
8r	.	8r	.	8b'\	.	.	.
8C'/	.	8Fn'/	.	8a'\J	.	8ffn\	.
=289	=289	=289	=289	=289	=289	=289	=289
4C'/	.	4G'/	.	4g'/	.	4ee'\	.
8r	.	8r	.	8r	.	8r	.
8C'/	.	8B'/	.	8fn'/	.	8dd'\	.
4C'/	.	4c'\	.	4e'/	.	4cc'\	.
8r	.	8r	.	8r	.	8r	.
8C'/	.	8E'/	.	8e'/	.	8b'\	.
=290	=290	=290	=290	=290	=290	=290	=290
.	.	.	.	.	.	(bq/	.
4C'/	<	4E'/	<	4e'/	<	4a/	<
8r	.	8r	.	8r	.	8g/L	.
8C'/	.	8E'/	.	8e'/	.	8a/J)	.
4BB'/	.	4F#'/	.	4d#'/	.	[2b\	.
8r	.	8r	.	8r	.	.	.
8BB'/	.	8F#'/	.	8d#'/	.	.	.
=291	=291	=291	=291	=291	=291	=291	=291
4BB'/	.	4F#'/	.	4d#'/	.	4b\]	.
8r	.	8r	.	8r	.	(8a\L	.
8BB'/	.	8F#'/	.	8d#'/	.	8b\J	.
4AA'/	.	4F#'/	.	4d#'/	.	[2cc\)	.
8r	.	8r	.	8r	.	.	.
8AA'/	.	8F#'/	.	8d#'/	.	.	.
=292	=292	=292	=292	=292	=292	=292	=292
4AA'/	.	4F#'/	.	4d#'/	.	4cc\]	.
8r	.	8r	.	8r	.	(8b\L	.
8AA'/	.	8F#'/	.	8B'/	.	8dd#\J	.
4GG'/	.	4G'/	.	4B'/	.	8ee'\)	.
.	.	.	.	.	.	8r	.
8r	.	8r	.	8r	.	(8b\L	.
8GG'/	.	8G'/	.	8B'/	.	8ee\J	.
=293	=293	=293	=293	=293	=293	=293	=293
4F#'\	.	4A'/	.	4d#'/	.	8ff#'\)	.
.	.	.	.	.	.	8r	.
8r	.	8r	.	8r	.	(8b\L	.
8F#'\	.	8A'/	.	8d#'/	.	8ff#\J	.
4E'\	.	4B'/	.	4e'/	.	8gg'\)	.
.	.	.	.	.	.	8r	.
8r	.	8r	.	8r	.	(8ee\L	.
8E'\	.	8B'/	.	8e'/	.	8gg\J	.
=294	=294	=294	=294	=294	=294	=294	=294
4C'/	.	4c'\	.	4e'/	.	8aa'\)	.
.	.	.	.	.	.	8r	.
8r	.	8r	.	8r	.	(8ee\L	.
8C'/	.	8c'\	.	8e'/	.	8aa\J	.
4BB'/	.	4d'\	.	4g#'/	.	8bb'\)	.
.	.	.	.	.	.	8r	.
8r	.	8r	.	8r	.	(8ee\L	.
8BB'/	.	8d'\	.	8g#'/	.	8bb\J	.
=295	=295	=295	=295	=295	=295	=295	=295
4AA'/	.	4e'\	.	4a'/	.	8ccc'\)	.
.	.	.	.	.	.	8r	.
8r	.	8r	.	8r	.	(8aa\L	.
8AA'/	.	8c'\	.	8a'/	.	8ff#\J	.
4BB'/	.	4B'/	.	4a'/	.	8dd#'\)	.
.	.	.	.	.	.	8r	.
8r	.	8r	.	8r	.	(8b\L	.
8BB'/	.	8B'/	.	8a'/	.	8dd#\J	.
=296	=296	=296	=296	=296	=296	=296	=296
4E\	f	4B/	f	4gn/	f	8ee'\)	f
.	.	.	.	.	.	8r	.
4r	.	4B/	.	4G/ 4e/	.	(8b\L	.
.	.	.	.	.	.	8dd#\J	.
4G\	.	4r	.	4r	.	8ee'\)	.
.	.	.	.	.	.	8r	.
4r	.	4B/	.	4G/ 4e/	.	(8b\L	.
.	.	.	.	.	.	8ee\J	.
=297	=297	=297	=297	=297	=297	=297	=297
4F#\	.	4r	.	4r	.	8ff#'\)	.
.	.	.	.	.	.	8r	.
4r	.	4d#\	.	4B/ 4f#/	.	(8b\L	.
.	.	.	.	.	.	8ff#\J	.
4E\	.	4r	.	4r	.	8gg'\)	.
.	.	.	.	.	.	8r	.
4r	.	4e\	.	4B/ 4g/	.	(8ee\L	.
.	.	.	.	.	.	8gg\J	.
=298	=298	=298	=298	=298	=298	=298	=298
4C/	.	4r	.	4r	.	8aa'\)	.
.	.	.	.	.	.	8r	.
4r	.	4e\	.	4c/ 4a/	.	(8ee\L	.
.	.	.	.	.	.	8aa\J	.
4BB/	.	4r	.	4r	.	8bb'\)	.
.	.	.	.	.	.	8r	.
4r	.	4g#\	.	4d/ 4b/	.	(8ee\L	.
.	.	.	.	.	.	8bb\J	.
=299	=299	=299	=299	=299	=299	=299	=299
4AA/	.	4r	.	4r	.	8ccc'\)	.
.	.	.	.	.	.	8r	.
4r	.	4a\	.	4cc\	.	(8aa\L	.
.	.	.	.	.	.	8ff#\J	.
4BB/	.	4r	.	4r	.	8dd#'\)	.
.	.	.	.	.	.	8r	.
4r	.	4f#\	.	4a/	.	(8b\L	.
.	.	.	.	.	.	8dd#\J)	.
=300	=300	=300	=300	=300	=300	=300	=300
4E\	ff	4B\ 4e\	ff	4g'/	ff	8ee\L	ff
.	.	.	.	.	.	8ff#\	.
4r	.	4r	.	8r	.	8ee\	.
.	.	.	.	8f#'/	.	8dd#\J	.
2r	.	2r	.	4e'/	.	8ee\L	.
.	.	.	.	.	.	8gg\	.
.	.	.	.	8r	.	8ff#\	.
.	.	.	.	8B'/	.	8ee\J	.
=301	=301	=301	=301	=301	=301	=301	=301
4BB/	.	4B\ 4f#\	.	4a'/	.	8dd#\L	.
.	.	.	.	.	.	8ee\	.
4r	.	4r	.	8r	.	8dd#\	.
.	.	.	.	8g'/	.	8cc#\J	.
2r	.	2r	.	4f#'/	.	8dd#\L	.
.	.	.	.	.	.	8ff#\	.
.	.	.	.	8r	.	8ee\	.
.	.	.	.	8B'/	.	8dd#\J	.
=302	=302	=302	=302	=302	=302	=302	=302
4EE/	.	4B\ 4e\	.	4g'/	.	8ee\L	.
.	.	.	.	.	.	8ff#\	.
4r	.	4r	.	8r	.	8ee\	.
.	.	.	.	8f#'/	.	8dd#\J	.
2r	.	2r	.	4e'/	.	8ee\L	.
.	.	.	.	.	.	8gg\	.
.	.	.	.	8r	.	8ff#\	.
.	.	.	.	8B'/	.	8ee\J	.
=303	=303	=303	=303	=303	=303	=303	=303
4BB/	.	4B\ 4f#\	.	4a'/	.	8dd#\L	.
.	.	.	.	.	.	8ee\	.
4r	.	4r	.	8r	.	8ff#\	.
.	.	.	.	8g'/	.	8gg\J	.
2r	.	2r	.	4f#'/	.	8aa\L	.
.	.	.	.	.	.	8bb\	.
.	.	.	.	8r	.	8ccc#\	.
.	.	.	.	8B'/	.	8ddd#\J	.
=304	=304	=304	=304	=304	=304	=304	=304
4E\	f	4B\ 4e\	f	4g/ 4b/	f	4eee'\	f
4r	.	4r	.	4r	.	8r	.
.	.	.	.	.	.	8ggg'\	.
2r	.	2r	.	2r	.	4fff#'\	.
.	.	.	.	.	.	8r	.
.	.	.	.	.	.	8eee'\	.
=305	=305	=305	=305	=305	=305	=305	=305
4D#\	.	4B/	.	4f#/ 4b/	.	4aaa'\	.
8r	.	4r	.	4r	.	8r	.
8E\	.	.	.	.	.	8ggg'\	.
4F#\	.	2r	.	2r	.	4fff#'\	.
8r	.	.	.	.	.	8r	.
8B\	.	.	.	.	.	8bb'\	.
=306	=306	=306	=306	=306	=306	=306	=306
4E\	.	4B/	.	4g/ 4b/	.	4ggg'\	.
4r	.	4r	.	4r	.	8r	.
.	.	.	.	.	.	8fff#'\	.
2r	.	2r	.	2r	.	4eee'\	.
.	.	.	.	.	.	8r	.
.	.	.	.	.	.	8gg'\	.
=307	=307	=307	=307	=307	=307	=307	=307
4BB/	.	4G/ 4d/	.	4ffn\	.	4fffn'\	.
8r	.	4r	.	4r	.	8r	.
8C/	.	.	.	.	.	8eee'\	.
4Dn/	.	2r	.	2r	.	4ddd'\	.
8r	.	.	.	.	.	8r	.
8G\	.	.	.	.	.	8gg'\	.
=308	=308	=308	=308	=308	=308	=308	=308
4C/	.	4G/	.	4ee\	.	4eee'\	.
4r	.	4r	.	4r	.	8r	.
.	.	.	.	.	.	8ddd'\	.
2r	.	2r	.	2r	.	4ccc'\	.
.	.	.	.	.	.	8r	.
.	.	.	.	.	.	8ee'\	.
=309	=309	=309	=309	=309	=309	=309	=309
4GG#/	.	4e\	.	4b\	.	4ddd'\	.
8r	.	4r	.	4r	.	8r	.
8AA/	.	.	.	.	.	8ccc'\	.
4BB/	.	2r	.	2r	.	4bb'\	.
8r	.	.	.	.	.	8r	.
8E\	.	.	.	.	.	8ee'\	.
=310	=310	=310	=310	=310	=310	=310	=310
4AA/	.	4a\	.	4e/ 4cc/	.	4ccc'\	.
4r	.	4r	.	4r	.	4bb'\	.
2r	.	2r	.	2r	.	(4aa\	.
.	.	.	.	.	.	8gg#\L	.
.	.	.	.	.	.	8aa\J)	.
=311	=311	=311	=311	=311	=311	=311	=311
4E\	.	4g\	.	4e/ 4b/	.	4bb'\	.
4r	.	4r	.	4r	.	4aa'\	.
2r	.	2r	.	2r	.	(4ggn\	.
.	.	.	.	.	.	8ff#\L	.
.	.	.	.	.	.	8gg\J)	.
=312	=312	=312	=312	=312	=312	=312	=312
4BB/	.	4B/	.	4cc'\	.	4aa'\	.
4r	.	4r	.	4b'\	.	4gg'\	.
2r	.	2r	.	(4a/	.	(4ff#\	.
.	.	.	.	8g#/L	.	8ee\L	.
.	.	.	.	8a/J)	.	8ff#\J)	.
=313	=313	=313	=313	=313	=313	=313	=313
4EE/	.	4E/	.	4b'\	.	4gg'\	.
4r	.	4r	.	4a'/	.	4ff#'\	.
2r	.	2r	.	(4gn/	.	(4ee\	.
.	.	.	.	8f#/L	.	8dd#\L	.
.	.	.	.	8e/J)	.	8ee\J)	.
=314	=314	=314	=314	=314	=314	=314	=314
1r	.	1r	.	(4e/	p	1ddn	p
.	.	.	.	8f#/L	.	.	.
.	.	.	.	8g#/J	.	.	.
.	.	.	.	4a/	.	.	.
.	.	.	.	8b\L	.	.	.
.	.	.	.	8g#/J)	.	.	.
=315	=315	=315	=315	=315	=315	=315	=315
(4EE/	p	1r	.	[1a	<	[1cc	<
8FF#/L	.	.	.	.	.	.	.
8GG#/J	<	.	.	.	.	.	.
4AA/	.	.	.	.	.	.	.
8BB/L	.	.	.	.	.	.	.
8GG#/J)	.	.	.	.	.	.	.
=316	=316	=316	=316	=316	=316	=316	=316
(1AA	.	(4E/	.	1a_	.	1cc]	.
.	.	8F#/L	p	.	.	.	.
.	.	8G#/J	<	.	.	.	.
.	.	4A/	.	.	.	.	.
.	.	8Fn/L	.	.	.	.	.
.	.	8E/J)	.	.	.	.	.
=317	=317	=317	=317	=317	=317	=317	=317
2BB/)	p	(4D#/	p	(2a/]	p	(4b\	p
.	.	4F#/	.	.	.	8cc#\L	.
.	.	.	.	.	.	8dd#\J	.
4EE/	.	4E/	.	4g#/	.	4ee\	.
4EE/	.	4F#/)	.	4a/)	.	4dd#\)	.
=318	=318	=318	=318	=318	=318	=318	=318
[1EE	.	(4G#/	.	(4e/	.	1ddn	.
.	.	[2.E/)	.	8f#/L	.	.	.
.	.	.	.	8g#/J	.	.	.
.	.	.	.	4a/	.	.	.
.	.	.	.	8b\L	.	.	.
.	.	.	.	8g#/J)	.	.	.
=319	=319	=319	=319	=319	=319	=319	=319
(4EE/]	<	1E_	<	[1a	<	[1ccn	<
8FF#/L	.	.	.	.	.	.	.
8GG#/J	.	.	.	.	.	.	.
4AA/	.	.	.	.	.	.	.
8BB/L	.	.	.	.	.	.	.
8GG#/J)	.	.	.	.	.	.	.
=320	=320	=320	=320	=320	=320	=320	=320
[1AA	.	(4E/]	.	1a]	.	1cc_	.
.	.	8F#/L	.	.	.	.	.
.	.	8G#/J	.	.	.	.	.
.	.	4A/	.	.	.	.	.
.	.	8Fn/L	.	.	.	.	.
.	.	8E/J)	.	.	.	.	.
=321	=321	=321	=321	=321	=321	=321	=321
(4AA/]	p	[1D	p	1fn	p	2cc\]	p
8BB-/L	.	.	.	.	.	.	.
8C/J	.	.	.	.	.	.	.
4D/	.	.	.	.	.	[2b-\	.
8BB-/L	.	.	.	.	.	.	.
8AA/J)	.	.	.	.	.	.	.
=322	=322	=322	=322	=322	=322	=322	=322
[1GG	.	(4D/]	.	1g	.	2b-\]	.
.	.	8E-/L	.	.	.	.	.
.	.	8Fn/J	.	.	.	.	.
.	.	4Gn/	.	.	.	[2b-\	.
.	.	8E-/L	.	.	.	.	.
.	.	8D/J)	.	.	.	.	.
=323	=323	=323	=323	=323	=323	=323	=323
(4GG/]	.	2.C#/	>	2.e/	>	2b-\]	>
8E\L	.	.	.	.	.	.	.
8Fn\J	.	.	.	.	.	.	.
4G\	.	.	.	.	.	[2a/	.
8E\L	.	(8c#\L	.	(8e/L	.	.	.
8C#/J)	.	8en\J)	.	8g/J)	.	.	.
=324	=324	=324	=324	=324	=324	=324	=324
4D\	.	2d\	.	2fn/	.	2a/]	.
(8D\L	.	.	.	.	.	.	.
8E\J	.	.	.	.	.	.	.
4Fn\	.	[2d\	.	[2f/	.	[2a-/	.
8D\L	.	.	.	.	.	.	.
8Cn/J)	.	.	.	.	.	.	.
=325	=325	=325	=325	=325	=325	=325	=325
4BB/	.	2.d\]	.	2.f/]	.	2a-/]	.
(8D\L	.	.	.	.	.	.	.
8E\J	.	.	.	.	.	.	.
4Fn\	.	.	.	.	.	[2g/	.
8D\L	.	(8B/L	.	(8d/L	.	.	.
8BB/J)	.	8d\J)	.	8fn/J)	.	.	.
=326	=326	=326	=326	=326	=326	=326	=326
4C/	.	4c\	.	(4e/	.	2g/]	.
(8C/L	.	2r	.	8e/L	.	.	.
8D\J	.	.	.	8d/J	.	.	.
4E\	.	.	.	4c/	.	[2g/	.
8C/L	.	(8A#/L	.	[4e/)	.	.	.
8BB/J)	.	8B/J)	.	.	.	.	.
=327	=327	=327	=327	=327	=327	=327	=327
4AA#/	.	4c#\	.	2.e/]	.	2g/]	.
(8AA#/L	.	(8c#\L	.	.	.	.	.
8BB/J	.	8B/J	.	.	.	.	.
4C#/	.	4A#/	.	.	.	4f#/	pp
4BB/)	.	4B/)	.	4r	.	(8d#/L	.
.	.	.	.	.	.	8e/J	.
=328	=328	=328	=328	=328	=328	=328	=328
4BB/	pp	4B/	pp	4d#/	pp	4f#'/)	.
4r	.	4r	.	4r	.	8r	.
.	.	.	.	.	.	8e'/	.
2r	.	2r	.	2r	.	4d#'/	.
.	.	.	.	.	.	(8f#/L	.
.	.	.	.	.	.	8g/J	.
=329	=329	=329	=329	=329	=329	=329	=329
4BB/	pp	4B/	pp	4d#/	pp	8a/)	pp
.	.	.	.	.	.	4r	.
4r	.	4r	.	4r	.	.	.
.	.	.	.	.	.	8g'/	.
2r	.	2r	.	2r	.	4f#'/	.
.	.	.	.	.	.	(8e/L	.
.	.	.	.	.	.	8f#/J	.
=330	=330	=330	=330	=330	=330	=330	=330
4BB/	.	4B/	.	4e/	.	4g/)	.
4r	.	4r	.	4r	.	8r	.
.	.	.	.	.	.	8f#'/	.
2r	.	2r	.	2r	.	4e'/	.
.	.	.	.	.	.	(8g/L	.
.	.	.	.	.	.	8a/J	.
=331	=331	=331	=331	=331	=331	=331	=331
4BB/	.	4B/	.	4e/	.	4b/)	.
4r	.	4r	.	2r	.	8r	.
.	.	.	.	.	.	8a'/	.
2r	.	2r	.	.	.	4g'/	.
.	.	.	.	(8dd#\L	.	4r	.
.	.	.	.	8ee\J	.	.	.
=332	=332	=332	=332	=332	=332	=332	=332
4B\	.	4f#\ 4a\	.	4ff#'\)	.	4dd#'\	.
4r	.	2r	.	8r	.	8r	.
.	.	.	.	8ee'\	.	8ee'\	.
2r	.	.	.	4dd#'\	.	4ff#'\	.
.	.	(8d#\L	.	4r	.	(8ff#\L	.
.	.	8e\J	.	.	.	8gg\J	.
=333	=333	=333	=333	=333	=333	=333	=333
4B\	.	8f#'\)	.	2r	.	8aa'\)	.
.	.	4r	.	.	.	4r	.
4r	.	.	.	.	.	.	.
.	.	8e'\	.	.	.	8gg'\	.
2r	.	4d#'\	.	4r	.	8ff#'\	.
.	.	.	.	.	.	8r	.
.	.	4r	.	(8ee\L	.	4r	.
.	.	.	.	8ff#\J	.	.	.
=334	=334	=334	=334	=334	=334	=334	=334
4B\	.	2r	.	8gg'\)	.	4ee'\	.
.	.	.	.	4r	.	.	.
4r	.	.	.	.	.	8r	.
.	.	.	.	8ff#'\	.	8ff#'\	.
2r	.	4r	.	8ee'\	.	4gg'\	.
.	.	.	.	8r	.	.	.
.	.	(8e\L	.	4r	.	(8gg\L	.
.	.	8f#\J	.	.	.	8aa\J	.
=335	=335	=335	=335	=335	=335	=335	=335
4B/	.	4g'\)	.	1r	.	4bb'\)	.
2r	.	8r	.	.	.	8r	.
.	.	8f#'\	.	.	.	8aa'\	.
.	.	4e'\	.	.	.	4gg'\	.
*clefC4	*clefG2	*	*	*	*	*	*
(8d#\L	.	4r	.	.	.	4r	.
8e\J	.	.	.	.	.	.	.
=336	=336	=336	=336	=336	=336	=336	=336
4f#'\)	.	2r	.	4dd#'\	<	1r	.
8r	.	.	.	4ee'\	.	.	.
8e'\	.	.	.	.	.	.	.
4d#'\	.	4r	.	8ff#'\	.	.	.
.	.	.	.	8r	.	.	.
(8f#\L	.	(8d#\L	.	4r	.	.	.
8g\J	.	8e\J	.	.	.	.	.
=337	=337	=337	=337	=337	=337	=337	=337
4a'\)	.	4f#'\)	.	1r	.	4ddd#'\	<
8r	.	8r	.	.	.	4eee'\	.
8g'\	.	8e'\	.	.	.	.	.
4f#'\	.	4d#'\	.	.	.	4fff#'\	.
(8e\L	.	4r	.	.	.	4r	.
8f#\J	.	.	.	.	.	.	.
=338	=338	=338	=338	=338	=338	=338	=338
4g'\)	.	2r	.	4ee'\	.	1r	.
8r	.	.	.	4ff#'\	.	.	.
8f#'\	.	.	.	.	.	.	.
4e'\	.	4r	.	4gg'\	.	.	.
(8g\L	.	(8e\L	.	4r	.	.	.
8a\J	.	8f#\J	.	.	.	.	.
=339	=339	=339	=339	=339	=339	=339	=339
4b'\)	.	4g'\)	.	1r	.	4eee'\	.
8r	.	8r	.	.	.	4fff#'\	.
8a'\	.	8f#'\	.	.	.	.	.
4g'\	.	4e'\	.	.	.	4ggg'\	.
4r	.	4r	.	.	.	(8fffn\L	.
.	.	.	.	.	.	8ggg\J	.
=340	=340	=340	=340	=340	=340	=340	=340
*clefF4	*clefF4	*	*	*	*	*	*
8A\	f	4c\	f	4fn/ 4a/	f	4aaa\)	f
8r	.	.	.	.	.	.	.
4r	.	4r	.	2r	.	8r	.
.	.	.	.	.	.	8ggg'\	.
2r	.	2r	.	.	.	4fffn'\	.
.	.	.	.	(8ffn\L	.	(8aaa\L	.
.	.	.	.	8gg\J	.	8bbb-\J	.
=341	=341	=341	=341	=341	=341	=341	=341
2r	.	1r	.	4aa'\)	.	4cccc\)	.
.	.	.	.	8r	.	8r	.
.	.	.	.	8gg'\	.	8bbb-'\	.
4r	.	.	.	4ffn'\	.	4aaa'\	.
(8FFn/L	ff	.	.	4r	.	4r	.
8GG/J	.	.	.	.	.	.	.
=342	=342	=342	=342	=342	=342	=342	=342
4AA/)	.	4Fn/ 4c/	ff	4a\ 4ffn\	ff	4cccc\	ff
8r	.	4r	.	4r	.	4r	.
8GG/	.	.	.	.	.	.	.
4FFn/	.	2r	.	2r	.	2r	.
4r	.	.	.	.	.	.	.
=343	=343	=343	=343	=343	=343	=343	=343
1r	.	1r	.	1r	.	1r	.
=344	=344	=344	=344	=344	=344	=344	=344
[1BB	p	1r	.	1r	.	(4B/	p
.	.	.	.	.	.	8c#/L	.
.	.	.	.	.	.	8d#/J	.
.	.	.	.	.	.	4e/	.
.	.	.	.	.	.	8f#/L	.
.	.	.	.	.	.	8d#/J	.
=345	=345	=345	=345	=345	=345	=345	=345
1BB_	.	[1G	p	[1e	p	4e/	.
.	.	.	.	.	.	4f#/	.
.	.	.	.	.	.	4g/	.
.	.	.	.	.	.	4a/)	.
=346	=346	=346	=346	=346	=346	=346	=346
1BB_	<	(2G/]	<	(2e/]	<	[1b	<
.	.	2F#/	.	2d#/	.	.	.
=347	=347	=347	=347	=347	=347	=347	=347
2BB/]	.	2G/)	.	2e/)	.	(2b\]	.
(2BB-/	.	(2G/	.	(2e/	.	4cc\)	.
.	.	.	.	.	.	(8ffn\L	.
.	.	.	.	.	.	8gg\J	.
=348	=348	=348	=348	=348	=348	=348	=348
4AA/)	f	4Fn/) 4c/	f	4A/) 4fn/	f	4aa'\)	f
4r	.	4r	.	4r	.	8r	.
.	.	.	.	.	.	8gg'\	.
2r	.	2r	.	4r	.	4ffn'\	.
.	.	.	.	(8ffn\L	.	(8aa\L	.
.	.	.	.	8gg\J	.	8bb-\J	.
=349	=349	=349	=349	=349	=349	=349	=349
2r	.	1r	.	4aa'\)	.	4ccc'\)	.
.	.	.	.	8r	.	8r	.
.	.	.	.	8gg'\	.	8bb-'\	.
4r	.	.	.	4ffn'\	.	4aa'\	.
(8FFn/L	ff	.	.	4r	.	4r	.
8GG/J	.	.	.	.	.	.	.
=350	=350	=350	=350	=350	=350	=350	=350
4AA/)	.	4Fn/ 4c/	ff	4a\ 4ffn\	ff	4cc\ 4ccc\	ff
8r	.	4r	.	4r	.	4r	.
8GG/	.	.	.	.	.	.	.
4FFn/	.	2r	.	2r	.	2r	.
4r	.	.	.	.	.	.	.
=351	=351	=351	=351	=351	=351	=351	=351
1r	.	1r	.	1r	.	1r	.
=352	=352	=352	=352	=352	=352	=352	=352
[1BB	p	1r	.	1r	.	(4B/	p
.	.	.	.	.	.	8c#/L	.
.	.	.	.	.	.	8d#/J	.
.	.	.	.	.	.	4e/	.
.	.	.	.	.	.	8f#/L	.
.	.	.	.	.	.	8d#/J	.
=353	=353	=353	=353	=353	=353	=353	=353
1BB_	p	[1G	p	[1e	p	4e/	.
.	.	.	.	.	.	4f#/	.
.	.	.	.	.	.	4g/	.
.	.	.	.	.	.	4a/)	.
=354	=354	=354	=354	=354	=354	=354	=354
1BB_	.	2G/]	.	2e/]	.	[1b	.
.	.	(2F#/	.	(2d#/	.	.	.
=355	=355	=355	=355	=355	=355	=355	=355
2BB/]	<	2G/)	<	2e/)	<	(2b\]	<
(2BB-/	.	(2G/	.	(2e/	.	[2cc\	.
=356	=356	=356	=356	=356	=356	=356	=356
2AA/	.	2c\)	.	2fn/)	.	2cc\]	.
2AA-/	.	([2B-/	.	(2f/	.	2dd\	.
=357	=357	=357	=357	=357	=357	=357	=357
2GG/	.	2B-/]	.	2e-/	.	2ee-\	.
2GG-/	.	[2d-\	.	[2b-/	.	2een\	.
=358	=358	=358	=358	=358	=358	=358	=358
2FFn/	.	1d-]	.	1b-])	.	2ffn\	.
2EE/)	.	.	.	.	.	2ff#\)	.
=359	=359	=359	=359	=359	=359	=359	=359
1DD#	v>	2c\)	.	1a	v>	[1ff#	v>
.	.	[2Bn/	v>	.	.	.	.
=360	=360	=360	=360	=360	=360	=360	=360
4EE/	p	2B/]	p	2g/	p	2ff#\]	p
4EE/	.	.	.	.	.	.	.
2r	.	4B/	.	4g/	.	4ee\	.
.	.	4B/	.	4g/	.	4ee\	.
=361	=361	=361	=361	=361	=361	=361	=361
4C/	<	2r	.	2r	.	2r	.
4C/	.	.	.	.	.	.	.
2r	.	4c\	<	4g/	<	4ee\	<
.	.	4c\	.	4g/	.	4ee\	.
=362	=362	=362	=362	=362	=362	=362	=362
4AA/	.	2r	.	2r	.	2r	.
4AA/	.	.	.	.	.	.	.
2r	.	4c\	.	4f#/	.	4ee\	.
.	.	4c\	.	4f#/	.	4ee\	.
=363	=363	=363	=363	=363	=363	=363	=363
4BB/	.	2r	.	2r	.	2r	.
4BB/	.	.	.	.	.	.	.
2r	.	4B/	.	4f#/	.	4dd#\	.
.	.	4B/	.	4f#/	.	4dd#\	.
=364	=364	=364	=364	=364	=364	=364	=364
8EE/L	.	2r	.	2r	.	2r	.
8EE/	.	.	.	.	.	.	.
8EE/	.	.	.	.	.	.	.
8EE/J	.	.	.	.	.	.	.
2r	.	8B/L	.	8e/L	.	8gg\L	.
.	.	8B/	.	8e/	.	8gg\	.
.	.	8B/	.	8e/	.	8gg\	.
.	.	8B/J	.	8e/J	.	8gg\J	.
=365	=365	=365	=365	=365	=365	=365	=365
2C/	.	2r	.	2r	.	2r	.
2r	.	2c\	.	2e/	.	2gg\	.
=366	=366	=366	=366	=366	=366	=366	=366
2AA/	.	2r	.	2r	.	2r	.
2r	.	2c\	.	2e/	.	2ff#\	.
=367	=367	=367	=367	=367	=367	=367	=367
2BB/	.	2r	.	2r	.	2r	.
2r	.	2B/	.	2d#/	.	2ff#\	.
=368	=368	=368	=368	=368	=368	=368	=368
2E\	.	2B/	.	2e/	.	2gg\	.
2E\	.	2e\	.	2g/	.	2bb\	.
=369	=369	=369	=369	=369	=369	=369	=369
2E\	.	2e\	.	2g/	.	2bb\	.
2E\	.	2e\	.	2g/	.	2bb\	.
=370	=370	=370	=370	=370	=370	=370	=370
2D\	.	2fn\	.	2g/	.	2bb\	.
2D\	.	2f\	.	2g/	.	2bb\	.
=371	=371	=371	=371	=371	=371	=371	=371
2GG/	.	2G\ 2fn\	.	2g\ 2dd\	.	2bb\	.
2GG/	.	2G\ 2f\	.	2g\ 2dd\	.	2bb\	.
=372	=372	=372	=372	=372	=372	=372	=372
4CC'/ 4C'/	ff	4G'/ 4e'/	ff	4g'/ 4cc'/	ff	2.ccc\	ff
8r	.	8r	.	8r	.	.	.
8CC'/ 8C'/	.	8E'/	.	8g'/	.	.	.
4CC'/ 4C'/	.	4E'/	.	4g'/	.	.	.
8r	.	8r	.	8r	.	(8ccc\L	.
8CC'/ 8C'/	.	8E'/	.	8c'/ 8g'/	.	8ddd\J	.
=373	=373	=373	=373	=373	=373	=373	=373
4CC'/ 4C'/	.	4E'/	.	4c'/ 4g'/	.	4eee'\)	.
8r	.	8r	.	8r	.	8r	.
8CC'/ 8C'/	.	8E'/	.	8c'/ 8g'/	.	8ddd'\	.
4CC'/ 4C'/	ff	4Fn'/	ff	4c'/ 4a'/	ff	4ccc'\	ff
8r	.	8r	.	8r	.	8r	.
8CC'/ 8C'/	.	8F'/	.	8c'/ 8a'/	.	8aa'\	.
=374	=374	=374	=374	=374	=374	=374	=374
4CC'/ 4C'/	.	4E'/	.	4c'/ 4g'/	.	2.gg\	.
8r	.	8r	.	8r	.	.	.
8CC'/ 8C'/	.	8E'/	.	8c'/ 8g'/	.	.	.
4CC'/ 4C'/	.	4E'/	.	4c'/ 4g'/	.	.	.
8r	.	8r	.	8r	.	(8ccc\L	.
8CC'/ 8C'/	.	8E'/	.	8c'/ 8g'/	.	8ddd\J	.
=375	=375	=375	=375	=375	=375	=375	=375
4CC'/ 4C'/	.	4E'/	.	4c'/ 4g'/	.	8eee\L	.
.	.	.	.	.	.	8ddd\)	.
8r	.	8r	.	8r	.	8ccc'\	.
8CC'/ 8C'/	.	8E'/	.	8c'/ 8g'/	.	8bb'\J	.
4CC'/ 4C'/	.	4Fn'/	.	4c'/ 4a'/	.	(8ddd\L	.
.	.	.	.	.	.	8ccc\)	.
8r	.	8r	.	8r	.	8bb'\	.
8CC'/ 8C'/	.	8F'/	.	8c'/ 8a'/	.	8aa'\J	.
=376	=376	=376	=376	=376	=376	=376	=376
4CC'/ 4C'/	.	4E'/	.	4c'/ 4g'/	.	[2gg\	.
8r	.	8r	.	8r	.	.	.
8CC'/ 8C'/	.	8E'/	.	8c'/ 8g'/	.	.	.
4CC'/ 4C'/	.	4E'/	.	4c'/ 4g'/	.	4.gg\]	.
8r	.	8r	.	8r	.	.	.
8CC'/ 8C'/	.	8D'/	.	8c'/ 8fn'/	.	8ffn\	.
=377	=377	=377	=377	=377	=377	=377	=377
4CC'/ 4C'/	.	4C'/	.	4c'/ 4e'/	.	4ee'\	.
8r	.	8r	.	8r	.	8r	.
8CC'/ 8C'/	.	8D'/	.	8c'/ 8fn'/	.	8dd'\	.
4CC'/ 4C'/	.	4E'/	.	4c'/ 4g'/	.	4cc'\	.
8r	.	8r	.	8r	.	8r	.
8CC'/ 8C'/	.	8E'/	.	8e'/	.	8b'\	.
=378	=378	=378	=378	=378	=378	=378	=378
.	.	.	.	.	.	(bq/	.
4C'/	.	4E'/	.	4e'/	.	4a/	.
8r	.	8r	.	8r	.	8g/L	.
8C'/	.	8E'/	.	8e'/	.	8a/J	.
4BB'/	.	4F#'/	.	4d#'/	.	[2b\)	.
8r	.	8r	.	8r	.	.	.
8BB'/	.	8F#'/	.	8d#'/	.	.	.
=379	=379	=379	=379	=379	=379	=379	=379
4BB'/	.	4F#'/	.	4d#'/	.	4b\]	.
8r	.	8r	.	8r	.	(8a\L	.
8BB'/	.	8F#'/	.	8d#'/	.	8b\J	.
4AA'/	.	4F#'/	.	4d#'/	.	[2cc\)	.
8r	.	8r	.	8r	.	.	.
8AA'/	.	8F#'/	.	8d#'/	.	.	.
=380	=380	=380	=380	=380	=380	=380	=380
4AA'/	.	4F#'/	.	4d#'/	.	4cc\]	.
8r	.	8r	.	8r	.	(8b\L	.
8A'\	.	8B'/	.	8f#'/	.	8dd#\J	.
4G'\	.	4B'/	.	4e'/	.	8ee\)	.
.	.	.	.	.	.	8r	.
8r	.	8r	.	8r	.	(8b\L	.
8G'\	.	8B'/	.	8e'/	.	8ee\J	.
=381	=381	=381	=381	=381	=381	=381	=381
4F#'\	.	4A'/	.	4d#'/	.	8ff#\)	.
.	.	.	.	.	.	8r	.
8r	.	8r	.	8r	.	(8b\L	.
8F#'\	.	8A'/	.	8d#'/	.	8ff#\J	.
4E'\	.	4B'/	.	4e'/	.	8gg\)	.
.	.	.	.	.	.	8r	.
8r	.	8r	.	8r	.	(8ee\L	.
8E'\	.	8e'\	.	8g'/	.	8gg\J	.
=382	=382	=382	=382	=382	=382	=382	=382
4C'/	.	4e'\	.	4a'/	.	8aa\)	.
.	.	.	.	.	.	8r	.
8r	.	8r	.	8r	.	(8ee\L	.
8C'/	.	8e'\	.	8a'/	.	8aa\J	.
4BB'/	.	4d'\	.	4g#'/	.	8bb\)	.
.	.	.	.	.	.	8r	.
8r	.	8r	.	8r	.	(8ee\L	.
8BB'/	.	8d'\	.	8g#'/	.	8bb\J	.
=383	=383	=383	=383	=383	=383	=383	=383
4AA'/	.	4c'\	.	4a'/	.	4ccc\)	.
8r	.	8r	.	8r	.	(8aa\L	.
8AA'/	.	8f#'\	.	8a'/	.	8ff#\J)	.
4BB'/	.	4f#'\	.	4a'/	.	4dd#\	.
8r	.	8r	.	8r	.	(8b\L	.
8BB'/	.	8f#'\	.	8a'/	.	8dd#\J)	.
=384	=384	=384	=384	=384	=384	=384	=384
*MM320	*MM320	*MM320	*MM320	*MM320	*MM320	*MM320	*MM320
!! Piu presto
4EE'/	v	4e'\	v	4e'/	v	4ee\	v
8r	.	8r	.	8r	.	4r	.
8E'\	.	8G'/	.	8d'/	.	.	.
4E'\	.	4A'/	.	4c'/	.	4r	.
8r	.	8r	.	8r	.	8r	.
8E'\	.	8c'\	.	8A'/	.	(8e/	.
=385	=385	=385	=385	=385	=385	=385	=385
4E\	.	4B/	.	4G/	.	4ee'\)	.
4r	.	4r	.	4r	.	8r	.
.	.	.	.	.	.	8ddn'\	.
2r	.	2r	.	2r	.	4cc'\	.
.	.	.	.	.	.	8r	.
.	.	.	.	.	.	8a'/	.
=386	=386	=386	=386	=386	=386	=386	=386
4EE'/	v	4G'/	v	4e'/	v	4g/	v
8r	.	8r	.	8r	.	4r	.
8E'\	.	8G'/	.	8d'/	.	.	.
4E'\	.	4A'/	.	4c'/	.	4r	.
8r	.	8r	.	8r	.	8r	.
8E'\	.	8c'\	.	8A'/	.	(8e/	.
=387	=387	=387	=387	=387	=387	=387	=387
4E\	.	4B/	.	4G/	.	4ee'\)	.
4r	.	4r	.	4r	.	8r	.
.	.	.	.	.	.	8dd'\	.
2r	.	2r	.	2r	.	4cc'\	.
.	.	.	.	.	.	8r	.
.	.	.	.	.	.	8a'/	.
=388	=388	=388	=388	=388	=388	=388	=388
4EE'/	v	4G'/ 4B'/	v	4g'/	v	4g/	v
8r	.	8r	.	8r	.	4r	.
8E'\	.	8G'/ 8B'/	.	8f#'/	.	.	.
4E'\	.	4G'/ 4B'/	.	4e'/	.	4r	.
8r	.	8r	.	8r	.	8r	.
8E'\	.	8A'/	.	8c'/	.	(8g/	.
=389	=389	=389	=389	=389	=389	=389	=389
4E\	.	4G/	.	4B/	.	8gg'\)	.
.	.	.	.	.	.	4r	.
4r	.	4r	.	4r	.	.	.
.	.	.	.	.	.	8ff#'\	.
2r	.	2r	.	2r	.	4.ee'\	.
.	.	.	.	.	.	8cc'\	.
=390	=390	=390	=390	=390	=390	=390	=390
4EE'/	v	4G'/ 4B'/	v	4g'/	v	4b\	v
8r	.	8r	.	8r	.	4r	.
8E'\	.	8G'/ 8B'/	.	8f#'/	.	.	.
4E'\	.	4G'/ 4B'/	.	4e'/	.	4r	.
8r	.	8r	.	8r	.	8r	.
8E'\	.	8A'/	.	8c'/	.	(8gg\	.
=391	=391	=391	=391	=391	=391	=391	=391
4E\	.	4G/	.	4B/	.	4ggg'\)	.
4r	.	4r	.	4r	.	8r	.
.	.	.	.	.	.	8fff#'\	.
4r	.	4r	.	4r	.	4eee'\	.
8r	.	8r	.	8r	.	8r	.
8E\	.	8e\	.	8a/	.	8ccc'\	.
=392	=392	=392	=392	=392	=392	=392	=392
4E\	v	4e\	v	4g/	v	4bb'\	v
4r	.	4r	.	4r	.	8r	.
.	.	.	.	.	.	8aa'\	.
4r	.	4r	.	4r	.	4gg'\	.
8r	.	8r	.	8r	.	8r	.
8BB/	.	8d#\	.	8a/	.	8ff#'\	.
=393	=393	=393	=393	=393	=393	=393	=393
4E\	v	4e\	v	4g/	v	4ee'\	v
4r	.	4r	.	4r	.	8r	.
.	.	.	.	.	.	8cc'\	.
4r	.	4r	.	4r	.	4b'\	.
8r	.	8r	.	8r	.	8r	.
8BB/	.	8F#/	.	8d#/	.	8a'/	.
=394	=394	=394	=394	=394	=394	=394	=394
4E\	v	4G/	v	4e/	v	4g'/	v
4r	.	4r	.	4r	.	8r	.
.	.	.	.	.	.	8f#'/	.
4r	.	4r	.	4r	.	4e'/	.
8r	.	8r	.	8r	.	8r	.
8BB/	.	8F#/	.	8A/	.	8d#'/	.
=395	=395	=395	=395	=395	=395	=395	=395
4E\	ff	4G/	ff	4B/	ff	4e'/	ff
4r	.	4r	.	4r	.	8r	.
.	.	.	.	.	.	8d#'/	.
4r	.	4r	.	4r	.	4e'/	.
8r	.	8r	.	8r	.	8r	.
8C/	.	8G/	.	8B-/	.	8e'/	.
=396	=396	=396	=396	=396	=396	=396	=396
4Fn\	.	4A/	.	4c/	.	4fn'/	.
4r	.	4r	.	4r	.	8r	.
.	.	.	.	.	.	8e'/	.
4r	.	4r	.	4r	.	4f'/	.
8r	.	8r	.	8r	.	8r	.
8D\	.	8A/	.	8c/	.	8f#'/	.
=397	=397	=397	=397	=397	=397	=397	=397
4G'\	.	4G'/	.	4Bn'/	.	4g'/	.
8r	.	8r	.	8r	.	8r	.
8E'\	.	8B'/	.	8d'/	.	8g#'/	.
4A'\	.	4A'/	.	4c'/	.	4a'/	.
8r	.	8r	.	8r	.	8r	.
8F#'\	.	8c#'\	.	8e'/	.	8a#'/	.
=398	=398	=398	=398	=398	=398	=398	=398
4B'\	.	4B'/	.	4d'/	.	4b'\	.
8r	.	8r	.	8r	.	8r	.
8G'\	.	8d'\	.	8fn'/	.	8b'\	.
4c'\	.	4cn'\	.	4e'/	.	4cc'\	.
8r	.	8r	.	8r	.	8r	.
8A'\	.	8e'\	.	8g'/	.	8cc#'\	.
=399	=399	=399	=399	=399	=399	=399	=399
4d'\	.	4d'\	.	4fn'/	.	4dd'\	.
8r	.	8r	.	8r	.	8r	.
8B'\	.	8f#'\	.	8a'/	.	8dd#'\	.
4E'\	.	4e'\	.	4g'/	.	4ee'\	.
8r	.	8r	.	8r	.	8r	.
8B'\	.	8f#'\	.	8a'/	.	8dd#'\	.
=400	=400	=400	=400	=400	=400	=400	=400
4E'\	.	4e'\	.	4g'/	.	4ee'\	.
8r	.	8r	.	8r	.	8r	.
8B'\	.	8a'\	.	8dd#'\	.	8ff#'\	.
4E'\	.	4g'\	.	4ee'\	.	4gg'\	.
8r	.	8r	.	8r	.	8r	.
8B'\	.	8a'\	.	8dd#'\	.	8ff#'\	.
=401	=401	=401	=401	=401	=401	=401	=401
4E'\	.	4g'\	.	4ee'\	.	4gg'\	.
8r	.	8r	.	8r	.	8r	.
8BB'/	.	8b'\	.	8ff#'\	.	8ddd#'\	.
4E'\	.	4b'\	.	4gg'\	.	4eee'\	.
8r	.	8r	.	8r	.	8r	.
8BB'/	.	8b'\	.	8ff#'\	.	8ddd#'\	.
=402	=402	=402	=402	=402	=402	=402	=402
4E'\	.	4b'\	.	4gg'\	.	4eee'\	.
8r	.	8r	.	8r	.	8r	.
8BB'/	.	8B'/	.	8dd#'\	.	8fff#'\	.
4E'\	.	4B'/	.	4ee'\	.	4ggg'\	.
8r	.	8r	.	8r	.	8r	.
8BB'/	.	8B'/	.	8dd#'\	.	8fff#'\	.
=403	=403	=403	=403	=403	=403	=403	=403
4E'\	.	4B'/	.	4ee'\	.	4ggg'\	.
8r	.	8r	.	8r	.	8r	.
8BB'/	.	8d#'\	.	8b'\ 8ff#'\	.	8bbb'\	.
4EE'/	.	4e'\	.	4b'\ 4gg'\	.	4bbb'\	.
8r	.	8r	.	8r	.	8r	.
8BB'/	.	8d#'\	.	8b'\ 8ff#'\	.	8bbb'\	.
=404	=404	=404	=404	=404	=404	=404	=404
4EE'/	.	4e'\	.	4b'\ 4gg'\	.	4bbb'\	.
8r	.	8r	.	8r	.	8r	.
8BB'/	.	8d#'\	.	8b'\ 8ff#'\	.	8bbb'\	.
4EE'/	.	4e'\	.	4b'\ 4gg'\	.	4bbb'\	.
8r	.	8r	.	8r	.	8r	.
8BB'/	.	8d#'\	.	8b'\ 8ff#'\	.	8bbb'\	.
=405	=405	=405	=405	=405	=405	=405	=405
4EE/	.	4e\	.	4b\ 4gg\	.	4bbb\	.
4r	.	4r	.	4r	.	4r	.
4BB/	.	4B\ 4a\	.	4B/ 4f#/ 4dd#/	.	4d#/ 4b/ 4ff#/	.
4r	.	4r	.	4r	.	4r	.
=406	=406	=406	=406	=406	=406	=406	=406
4E\	.	4B\ 4g\	.	4B/ 4g/ 4ee/	.	4e\ 4b\ 4gg\	.
4r	.	4r	.	4r	.	4r	.
4BB/	.	4B\ 4f#\	.	4B/ 4a/	.	4B/ 4f#/ 4dd#/	.
4r	.	4r	.	4r	.	4r	.
=407	=407	=407	=407	=407	=407	=407	=407
4E\	.	4B\ 4e\	.	4B/ 4g/	.	4G/ 4e/ 4ee/	.
4r	.	4r	.	4r	.	4r	.
2r	.	2r	.	2r	.	2r	.
=408	=408	=408	=408	=408	=408	=408	=408
4BB/	.	4B\ 4d#\	.	4B/ 4f#/	.	4B/ 4f#/ 4b/	.
4r	.	4r	.	4r	.	4r	.
2r	.	2r	.	2r	.	2r	.
=409	=409	=409	=409	=409	=409	=409	=409
4EE/	.	4E/	.	4G/ 4e/	.	4e/	.
4r	.	4r	.	4r	.	4r	.
2r	.	2r	.	2r	.	2r	.
==	==	==	==	==	==	==	==
*-	*-	*-	*-	*-	*-	*-	*-
!!!ENC: Craig Stuart Sapp
!!!END: 2002/09/12/
!!!RWG: repeated note shorthand not expanded.
!!!ONB: Dynamics cleaned up.
